!!!!SEGMENT: pl-wtm--1351-fp-4576--001-004_stojowski-zygmunt--vier-stucke-quatre-morceaux-op-26-4-theme-cracovien-varie.krn
!!!cenid: 19xx:157
!!!COM: Stojowski, Zygmunt
!!!COM-rismID: pe41019736
!!!CDT: 1870-1946
!!!CNT: Polish
!!!GTL: Vier Stücke/Quatre morceaux Op. 26
!!!OTL: 4. Thème cracovien varié
!!!OMV: 004
!!!PDT:
!!!AGN:
!!!YEC: Copyright 2022 Narodowy Instytut Fryderyka Chopina (https://polishscores.org)
!!!YEM: License CC-BY-4.0 (https://creativecommons.org/licenses/by/4.0)
!!!SMS-siglum: PL-Wtm
!!!SMS-shelfmark: 1351 fp 4576
!!!SMS-variant:
!!!SMS-altvar:
!!!SMS-shelfwork: 001-004 G
!!!NIFC-rismSourceID: 1001214689
!!!NIFC-rismChildID: 1001214689
!!!NIFC-islandoraID: pl-wtm:83036
!!!URL-pdf-islandora: https://repozytorium.nifc.pl/islandora/object/pl-wtm%3A83036/datastream/PDF/view
!!!URL-scan: https://polish.musicsources.pl/pl/lokalizacje/galeria/druki-muzyczne/18547/13 @EN{Scan on Polish Music Sources Website} @PL{Skany w portalu Dziedzictwo Muzyki Polskiej w otwartym dostępie}
!!!IIIF:
!!!ONB-nifc:
!!!OMD: Allegretto moderato.
!!!AIN: 1 piano
!!!key: G
**kern	**fing	**kern	**fing	**dynam
*part1	*part1	*part1	*part1	*part1
*staff2	*staff2	*staff1	*staff1	*
*ICklav	*	*ICklav	*	*
*Ipiano	*	*Ipiano	*	*
*I"[Pianoforte]	*	*I"[Pianoforte]	*	*
*clefF4	*	*clefG2	*	*
*k[f#]	*	*k[f#]	*	*
*G:	*	*G:	*	*
*M2/4	*	*M2/4	*	*
*>[A,B,B,C,C1,C,C2,D,D,E]	*	*>[A,B,B,C,C1,C,C2,D,D,E]	*	*
=1	=1	=1	=1	=1
*>A	*	*>A	*	*
*	*	*^	*	*
4r	.	(>8g/L	4ryy	.	mf
.	.	8b/J	.	.	.
*ped	*	*	*	*	*
4GG:\ 4D: 4B:	.	4dd:/)	4d:\ 4g:	.	.
*Xped	*	*	*	*	*
=2	=2	=2	=2	=2	=2
4r	.	(>8g/L	4ryy	.	.
.	.	8b/J	.	.	.
*ped	*	*	*	*	*
4GG:\ 4D: 4B:	.	4dd:/)	4d:\ 4g:	.	.
*Xped	*	*	*	*	*
=3	=3	=3	=3	=3	=3
*ped	*	*	*	*	*
8C:\ 8G: 8c:	.	8g':/ 8ee:	8e:\	.	.
8r	.	4ee~/	8r	.	.
4r	.	.	4r	.	.
*Xped	*	*	*	*	*
.	.	(8ee/	.	.	.
=4	=4	=4	=4	=4	=4
8BB:\ 8G: 8B:	.	8dd/L)	8d:\ 8g:	.	.
8r	.	(8dd/	8r	.	.
4r	.	8b/	4r	.	.
!	!	!	!	!	!LO:HP:a
.	.	8g/J)	.	.	>
*	*	*v	*v	*	*
!!LO:LB:g=original
=5	=5	=5	=5	=5
*^	*	*	*	*
(4g/	2c\	.	8ee'\	.	]
.	.	.	4ee~\	.	.
4f#/)	.	.	.	.	.
.	.	.	(8ee\	.	.
*v	*v	*	*	*	*
=6	=6	=6	=6	=6
4B\ 4g	.	8dd\L)	.	.
.	.	(8dd\	.	.
4r	.	8b\	.	<
.	.	8g\J)	.	.
=7	=7	=7	=7	=7
*^	*	*^	*	*
(<2F#/	4.D\	.	(8a/L	2d\	.	.
.	.	.	8cc/	.	.	.
.	.	.	8b/	.	.	.
.	8C\	.	8a/J	.	.	[
*v	*v	*	*	*	*	*
*	*	*v	*v	*	*
=8	=8	=8	=8	=8
4BB/	.	4d/ 4f# 4dd	.	.
4C/)	.	4c/) 4e 4g	.	.
=9	=9	=9	=9	=9
*	*	*^	*	*
2D\	.	(8f#/L	2c\	.	.
.	.	8g/J	.	.	.
.	.	4a/	.	.	.
*	*	*v	*v	*	*
!!LO:LB:g=original
=10	=10	=10	=10	=10
8GG/ 8D	.	8B/ 8g	.	.
8r	.	4b/	.	.
[4G\	.	.	.	.
.	.	8dd\)	.	.
=11	=11	=11	=11	=11
*^	*	*^	*	*
4G/]	2C\	.	(8a/L	4e\	.	.
.	.	.	8cc/	.	.	>
[4F#/	.	.	8b/	4e-X\	.	.
.	.	.	8a/J)	.	.	]
*v	*v	*	*	*	*	*
*	*	*v	*v	*	*
=12	=12	=12	=12	=12
4BB\ 4F#]	.	4d~>:/ 4dd:	.	.
4EE/ 4E	.	4G:/ 4B: 4g:	.	.
=13	=13	=13	=13	=13
*	*	*^	*	*
!	!	!LO:TX:a:i:t=poco rit.	!	!	!
2DD/ 2D	.	(8F#/L 8f#	2c\	.	.
.	.	8G/J 8g	.	.	>
.	.	4A/) 4a	.	.	]]
=14	=14	=14	=14	=14	=14
2GG/ 2D	.	8G'/ 8g	2B\	.	.
.	.	4.G~/ 4.g	.	.	.
*	*	*v	*v	*	*
!!LO:LB:g=original
=15||	=15||	=15||	=15||	=15||
!LO:TX:b:i:t=poco rilevato	!	!LO:TX:a:i:t=a tempo	!	!
(8G\L	.	8r	.	.
8B\J	.	(24g/LL	.	.
.	.	24a/	.	.
.	.	24g/JJ	.	.
4d\)	.	8f#/L	.	.
.	.	16e/L	.	.
.	.	16f#/JJ	.	.
=16	=16	=16	=16	=16
(8G\L	.	8g/L)	.	.
8B\J	.	(24g/L	.	.
.	.	24a/	.	.
.	.	24g/JJ	.	.
4d\)	.	8f#/L	.	.
.	.	8a/J)	.	.
=17	=17	=17	=17	=17
*	*	*^	*	*
8e'\	.	(8.g/L	2g\	.	.
4e~\	.	.	.	.	.
!	!	!	!	!	!LO:HP:a
.	.	16a/K	.	.	<
.	.	8b/	.	.	.
(8e\	.	8cc#X/J	.	.	[[
=18	=18	=18	=18	=18	=18
8d\L)	.	[2dd/)	(4f#\	.	.
(8d\	.	.	.	.	.
!	!	!	!	!	!LO:HP:b=2
8B\	.	.	[4g\)	.	>
8G\J)	.	.	.	.	.
!!LO:LB:g=original
=19	=19	=19	=19	=19	=19
!	!	!	!	!	!LO:HP:a
8e'\	.	(8dd/L]	2g\]	.	] >
4e~\	.	16cc#X/L	.	.	.
.	.	16b/JJ	.	.	]
!	!	!	!	!	!LO:DY:a
.	.	8cc#/L	.	.	p
(8e\	.	8a/J	.	.	.
=20	=20	=20	=20	=20	=20
8d\L)	.	2dd/)	(4f#\	.	.
(8d\	.	.	.	.	.
8B\	.	.	4g\)	.	<
8G\J)	.	.	.	.	[[
=21	=21	=21	=21	=21	=21
(8A\L	.	(16ccn/LL	(8g\L	1 3	.
.	.	16dd/J	.	.	.
8c\)	.	8ee/J)	8f#\J)	2 5	.
8B\	.	(8dd/L	4g\	1 4	.
8A\J	.	16cc/L	.	5	.
.	.	16b/JJ	.	4	.
=22	=22	=22	=22	=22	=22
(4d\	.	8a/L	(4f#\	2 3	.
.	.	16b/L	.	.	.
.	.	16cc/JJ	.	.	.
4G\)	.	8b/L	4d\)	.	.
.	.	8g/J)	.	.	.
!!LO:PB:g=original
=23	=23	=23	=23	=23	=23
(8F#\L	.	(8a/L	(<4.d\	1 5	.
8G\J	.	8g/J	.	.	.
.	.	16qqf#/LL	.	.	.
.	.	16qqg/JJ	.	.	.
4A\	.	8f#/L	.	.	.
.	.	16e/L	8c\	2 4	.
.	.	16d/JJ	.	3	.
=24	=24	=24	=24	=24	=24
8G\)	.	8B/L)) 8g	4ryy	.	.
(4B\	.	(>16d/L	.	2	.
.	.	16e/JJ	.	.	.
.	.	16f#/LL	8r	.	.
.	.	16g/	.	1	.
8d\)	.	16a/	8f#\	2 3	.
.	.	16b/JJ	.	.	.
=25	=25	=25	=25	=25	=25
(8A\L	.	16cc/LL	8e\L	3	.
.	.	16dd/J	.	.	.
8c\J)	.	8ee/J)	8f#\J	.	.
8B\L	.	(8dd/L	4g\	.	.
8A\J	.	16cc/L	.	.	.
.	.	16b/JJ	.	.	.
=26	=26	=26	=26	=26	=26
(4d\	.	8a/L	(4f#\	.	.
.	.	16b/L	.	.	.
.	.	16cc/JJ	.	.	.
4G\)	.	8b/L	4d\)	.	.
.	.	8g/J)	.	.	.
!!LO:LB:g=original
=27	=27	=27	=27	=27	=27
*^	*	*	*	*	*
!	!	!	!	!	!	!LO:HP:b=2
4ryy	(8F#\L	.	(8a/L	4.d\	.	<
!	!	!	!LO:TX:a:i:t=poco rit.	!	!	!
.	8G\J	.	8g/J	.	.	.
.	.	.	16qqf#/LL	.	.	.
.	.	.	16qqg/JJ	.	.	.
4A/	8A\L)	.	8f#/L	.	.	[ >
.	8D\J	.	16e/L	8c\	.	.
.	.	.	16d/JJ	.	.	]
*v	*v	*	*	*	*	*
*	*	*v	*v	*	*
=28	=28	=28	=28	=28
8G'\	.	8B'>/) 8g	.	.
4.GG/ 4.D	.	4.B~>/ 4.g	.	.
=29||	=29||	=29||	=29||	=29||
!	!	!LO:TX:a:t=Con grazia, un pochettino più animato.	!	!
8GG:\L 8D: 8B:	.	(16g/LL	.	p
.	.	16a/	.	.
8g'\J	.	16b/	.	.
.	.	16cc/JJ	.	.
4d~\	.	16dd\LL	.	.
.	.	16b\J	.	.
.	.	8dd\J)	.	.
=30	=30	=30	=30	=30
8GG:\L 8D: 8B:	.	(16g/LL	.	.
.	.	16a/	.	.
8g'\J	.	16b/	.	.
.	.	16cc/JJ	.	.
4d~\	.	16dd\LL	.	.
.	.	16b\J	.	.
.	.	8dd\J)	.	.
!!LO:LB:g=original
=31	=31	=31	=31	=31
8g'\L	.	8ee'\L	.	.
[8c\J	.	(16ee\L	.	.
.	.	16dd\JJ	.	.
4F#:\ 4c:] 4a:	.	16ee\LL	.	.
.	.	16cc\	.	.
.	.	16dd\	.	.
.	.	16ee\JJ	.	.
=32	=32	=32	=32	=32
8f#'\L	.	8dd'\L)	.	.
[8B\J	.	(16dd\L	.	.
.	.	16cc\JJ	.	.
4E:\ 4B:] 4g:	.	16dd\LL	.	.
.	.	16b\	.	.
.	.	16cc\	.	.
.	.	16dd\JJ	.	.
=33	=33	=33	=33	=33
*^	*	*	*	*
8g'\L	4ryy	.	8ee\L)	.	.
[8A\J	.	.	(16ee\L	.	.
.	.	.	16dd\JJ	.	.
4A/]	4C\	.	16ee\LL	.	.
.	.	.	16gg\	.	.
.	.	.	16ff#\	.	.
.	.	.	16ee\JJ	.	.
!!LO:LB:g=original
=34	=34	=34	=34	=34	=34
8f#\L	4ryy	.	8dd\L)	.	.
[8A\J	.	.	(16dd\L	.	.
.	.	.	16ee\JJ	.	.
4A/_	4BB\	.	16dd\LL	.	.
.	.	.	16ee\	.	.
.	.	.	16dd\	.	.
.	.	.	16b\JJ	.	.
*v	*v	*	*	*	*
=35	=35	=35	=35	=35
8C\L 8A]	.	8a/L)	.	.
8e\J	.	(16a/L	.	.
.	.	16b/JJ	.	.
[4F#\	.	16a/LL	.	.
.	.	16cc/	.	.
.	.	16b/	.	.
.	.	16a/JJ	.	.
=36	=36	=36	=36	=36
*^	*	*	*	*
8F#/]	8BB\	.	16dd\LL	.	.
.	.	.	16b\	.	.
(4d/	8r	.	16dd\	.	.
.	.	.	16b\JJ	.	.
.	4E\	.	4g/)	.	.
8c#X/	.	.	.	.	.
*v	*v	*	*	*	*
!!LO:LB:g=original
=37	=37	=37	=37	=37
8D'\L) 8cn	.	(16f#/LL	.	.
.	.	16g/	.	.
8e'\J	.	16f#/	.	.
.	.	16g/JJ	.	.
[4c\ [4d	.	16a/LL	.	.
.	.	16f#/	.	.
.	.	16g/	.	.
.	.	16a/JJ	.	.
=38	=38	=38	=38	=38
*^	*	*	*	*
8d/]	(8c\L]	.	16g/LL	.	.
.	.	.	16a/	.	.
!	!LO:N:vis=8.	!	!	!	!
4.B/	8B\	.	16g/	.	.
.	.	.	16b/JJ	.	.
.	8A\	.	4dd\)	.	.
.	[>8G\J)	.	.	.	.
*v	*v	*	*	*	*
=39	=39	=39	=39	=39
8C\L 8G]	.	8a'/L	.	.
8e-X\J	.	(>16a/L	.	.
.	.	16b/JJ	.	.
[4F#\	.	16a/LL	.	.
.	.	16cc/	.	.
.	.	16b/	.	.
.	.	16a/JJ	.	.
!!LO:LB:g=original
=40	=40	=40	=40	=40
*^	*	*	*	*
8r	8BB\ 8F#]	.	16dd\LL	.	.
.	.	.	16b\	.	.
(>4d/	8r	.	16dd\	.	.
.	.	.	16b\JJ	.	.
.	4E\	.	8g/L	.	.
8c#X/	.	.	16a/L	.	.
.	.	.	16g/JJ	.	.
=41	=41	=41	=41	=41	=41
8cn/L)	2D\	.	16f#/LL	.	.
.	.	.	16g/	.	.
8d/J	.	.	16f#/	.	.
.	.	.	16e/JJ	.	.
4A/	.	.	16f#/LL	.	.
.	.	.	16d/	.	.
.	.	.	16e/	.	.
.	.	.	16f#/JJ	.	.
=42	=42	=42	=42	=42	=42
.	.	.	16qqg/LL	.	.
!	!	!	!LO:TX:t=P:problem=mixed beam	!	!
!	!	!	!LO:TX:a:i:t=poco rit.	!	!
.	.	.	16qqa/JJ	.	.
*	*	*	*^	*	*
16g>\	8ryy	.	N(<[4g/)	16ryy	.	.
!LO:N:vis=16.	!	!	!	!	!	!
16d>\	.	.	.	[8.d/	.	.
16B/	[>8B\	.	.	.	.	.
[16D/JJ	.	.	.	.	.	.
4GG\N) 4D] 4B]	4ryy	.	4d/] 4g]	4ryy	.	.
*v	*v	*	*	*	*	*
*	*	*v	*v	*	*
!!LO:PB:g=original
=43!|:	=43!|:	=43!|:	=43!|:	=43!|:
*>B	*	*>B	*	*
!	!	!LO:TX:a:B:t=Più mosso.	!	!
(16G\LL	.	8r	.	.
16A\	.	.	.	.
16B\	.	8g'/L 8dd	.	.
16c\JJ	.	.	.	.
16d\LL	.	8g'/J 8b	.	.
16c\	.	.	.	.
16d\	.	8r	.	.
16B\JJ	.	.	.	.
=44	=44	=44	=44	=44
16G\LL	.	8r	.	.
16A\	.	.	.	.
16B\	.	8g'/L 8dd	.	.
16c\JJ	.	.	.	.
16d\LL	.	8g'/J 8b	.	.
16c\	.	.	.	.
16d\	.	8r	.	.
16B\JJ	.	.	.	.
=45	=45	=45	=45	=45
16e\LL	.	8r	.	.
16f#\	.	.	.	.
16e\	.	8g'\L 8a	.	.
16d\JJ	.	.	.	.
16e\LL	.	8a'\J 8gg	.	.
16c\	.	.	.	.
16d\	.	8r	.	.
16e\JJ	.	.	.	.
=46	=46	=46	=46	=46
16d\LL	.	8r	.	.
16e\	.	.	.	.
16d\	.	8f#'/L 8g	.	.
16c\JJ	.	.	.	.
16d\LL	.	8g'/J 8ff#	.	.
16B\	.	.	.	.
16c\	.	8r	.	.
16d\JJ	.	.	.	.
!!LO:LB:g=original
=47	=47	=47	=47	=47
*	*below	*	*	*
16e\LL	1	8r	.	.
16d\	4	.	.	.
16e\	.	8cc'\L 8gg	.	.
16f#\JJ	.	.	.	.
16e\LL	.	8cc'\ 8gg	.	.
16g\	.	.	.	.
16f#\	.	8cc'\J 8aa	.	.
16e\JJ	.	.	.	.
=48	=48	=48	=48	=48
16d\LL	.	8r	.	.
16e\	.	.	.	.
16d\	.	8cc'\L 8ff#	.	.
16e\JJ	.	.	.	.
16d\LL	.	8cc'\ 8ff#	.	.
16e\	.	.	.	.
16d\	.	8b'\J 8gg	.	.
16B\JJ)	.	.	.	.
=49	=49	=49	=49	=49
(16A\LL	.	8r	.	.
16B\	.	.	.	.
16A\	.	8cc'/L 8ee	.	.
16B\JJ	.	.	.	.
16A\LL	.	8f#'/J 8dd	.	.
16c\	.	.	.	.
16B\	.	8r	.	.
16A\JJ	.	.	.	.
=50	=50	=50	=50	=50
16d\LL	.	8r	.	.
16c\	.	.	.	.
16d\	.	8b'\L 8dd	.	.
16B\JJ	.	.	.	.
16G\LL	.	8dd'\J 8bb	.	.
16A\	.	.	.	.
16G\	.	8r	.	.
16E\JJ	.	.	.	.
!!LO:LB:g=original
=51	=51	=51	=51	=51
16F#\LL	.	8r	.	.
16G\	.	.	.	.
!	!	!	!	!LO:HP:b=2
16F#\	.	8cc'/L 8dd	.	<
16G\JJ	.	.	.	.
16A\LL	.	8cc'/ 8dd	.	.
16F#\	.	.	.	.
16G\	.	8d'/J	.	.
16A\JJ	.	.	.	.
=52	=52	=52	=52	=52
16G\LL	.	8r	.	[
16A\	.	.	.	.
16G\	.	8b'\L 8gg	.	.
16B\JJ	.	.	.	.
16d\LL	.	8b'\ 8gg	.	.
16e\	.	.	.	.
16d\	.	8g'\J 8b	.	.
16B\JJ)	.	.	.	.
=53	=53	=53	=53	=53
(16A\LL	.	8r	.	.
16B\	.	.	.	.
16A\	.	8cc'/L 8ee	.	.
16B\JJ	.	.	.	.
!	!	!	!	!LO:HP:b=2
16A\LL	.	8e'/J 8f#	.	>
16c\	.	.	.	.
16B\	.	8r	.	.
16A\JJ	.	.	.	]]
=54	=54	=54	=54	=54
16d\LL	.	8r	.	.
16c\	.	.	.	.
16d\	.	8f#'/L 8dd	.	.
16B\JJ	.	.	.	.
16G\LL	.	8d'/J 8e	.	.
16B\	.	.	.	>
16A\	.	8r	.	.
16G\JJ	.	.	.	]
!!LO:LB:g=original
=55	=55	=55	=55	=55
16F#\LL	.	8r	.	.
16G\	.	.	.	.
16F#\	.	8c'/L 8d	.	.
16E\JJ	.	.	.	.
16F#\LL	.	8d'/J 8cc	.	.
16D\	.	.	.	.
16E\	.	8r	.	.
16F#\JJ	.	.	.	.
=56	=56	=56	=56	=56
16G/LL	.	8r	.	.
16D/	.	.	.	.
16GG/	.	8d'/ 8b	.	.
16D/JJ	.	.	.	.
4G\)	.	4B/ 4g	.	.
=57:|!|:	=57:|!|:	=57:|!|:	=57:|!|:	=57:|!|:
*>C	*	*>C	*	*
!	!	!LO:TX:a:B:t=Leggiero e veloce.	!	!
(16B\LL	.	(16g/LL	.	.
16d\	.	16b/	.	.
16c\	.	16a/	.	.
16d\JJ	.	16b/JJ	.	.
16G\LL	.	16dd\LL	.	.
16d\	.	16b\	.	.
16c\	.	16a\	.	.
16d\JJ	.	16b\JJ	.	.
=58	=58	=58	=58	=58
16B\LL	.	16g/LL	.	.
16d\	.	16b/	.	.
16c\	.	16a/	.	.
16d\JJ	.	16b/JJ	.	.
16G\LL	.	16dd\LL	.	.
16d\	.	16b\	.	.
16c\	.	16a\	.	.
16d\JJ)	.	16b\JJ)	.	.
*clefG2	*	*	*	*
!!LO:LB:g=original
=59	=59	=59	=59	=59
(16c/LL	.	(16g/LL	.	<
16e/	.	16cc/	.	.
16d/	.	16b/	.	.
16e/JJ	.	16cc/JJ	.	[
16g/LL	.	16ee\LL	.	>
16e/	.	16cc\	.	.
16d/	.	16b\	.	.
16e/JJ	.	16cc\JJ	.	]
=60	=60	=60	=60	=60
16B/LL	.	16g/LL	.	.
16d/	.	16b/	.	.
16c/	.	16a/	.	.
16d/JJ	.	16b/JJ	.	.
16g/LL	.	16dd\LL	.	.
16d/	.	16b\	.	.
16c/	.	16a\	.	.
16d/JJ)	.	16b\JJ)	.	.
=61	=61	=61	=61	=61
(16c/LL	.	(16g/LL	.	.
16e/	.	16cc/	.	<
16d/	.	16b/	.	.
16e/JJ	.	16cc/JJ	.	.
16g/LL	1	16ee\LL	.	.
16f#/	4	16dd\	.	.
16g/	.	16ee\	.	.
16a/JJ	.	16ff#\JJ	.	[
=62	=62	=62	=62	=62
16b/LL	.	16gg\LL	.	>
16a/	.	16ff#\	.	.
16g/	.	16ee\	.	.
16f#/JJ	.	16dd\JJ	.	.
16g/LL	1	16ee\LL	.	.
16f#/	.	16dd\	.	]
16e/	.	16cc\	.	.
16d/JJ	.	16b\JJ	.	.
!!LO:LB:g=original
=63	=63	=63	=63	=63
16f#/LL	2	16a/LL	.	.
16g/	.	16b/	.	.
16f#/	.	16a/	.	.
16e/JJ	.	16cc/JJ	.	.
16d/LL	.	16b/LL	.	.
16e/	1	16cc/	.	.
16d/	.	16b/	.	.
16c/JJ	.	16a/JJ	.	.
=64	=64	=64	=64	=64
16B/LL	.	16dd\LL	.	.
16d/	.	16b\	.	.
16c/	.	16a\	.	.
16d/JJ	.	16b\JJ	.	.
16e/LL	.	16g/LL	.	.
16d/	.	16b/	.	.
16c/	.	16a/	.	.
16d/JJ)	.	16b/JJ)	.	.
=65	=65	=65	=65	=65
(16A/LL	.	(16f#/LL	.	.
16c/	.	16e/	.	.
16d/	.	16f#/	.	.
16e/JJ	.	16g/JJ	.	<
16f#/LL	4	16a\LL	.	.
16g/	.	16b\	.	.
16a/	.	16cc\	.	.
16f#/JJ	.	16dd\JJ	.	[
=66	=66	=66	=66	=66
16g/LL	.	16b\LL	.	.
16b/	.	16dd\	.	.
16a/	.	16cc\	.	.
16b/JJ	.	16dd\JJ	.	.
16g/LL	.	16ee\LL	.	>
16f#/	.	16dd\	.	.
16e/	1	16cc\	.	.
16d/JJ)	.	16b\JJ)	.	]
!!LO:PB:g=original
=67	=67	=67	=67	=67
(16c/LL	.	(16a/LL	.	.
16e/	.	16g/	.	.
16f#/	.	16a/	.	.
16e/JJ	.	16cc/JJ	.	.
16d/LL	.	16b/LL	.	.
16e/	.	16cc/	.	.
16d/	.	16b/	.	.
16c/JJ	.	16a/JJ	.	.
=68	=68	=68	=68	=68
16B/LL	.	16dd/LL	.	.
16d/	.	16b/	.	.
16c/	.	16a/	.	.
16d/JJ	.	16b/JJ	.	.
16e/LL	.	16g/LL	.	.
16d/	.	16b/	.	.
16c/	.	16a/	.	.
16d/JJ	.	16b/JJ	.	.
*clefF4	*	*	*	*
=69	=69	=69	=69	=69
16c\LL	.	16a/LL	.	.
16B\	.	16b/	.	.
16c\	.	16a/	.	.
16e\JJ	.	16g/JJ	.	.
16d\LL	.	16f#/LL	.	.
16c\	.	16a/	.	.
16B\	1	16g/	.	.
16A\JJ	.	16f#/JJ	.	.
=70	=70	=70	=70	=70
*>C1	*	*>C1	*	*
16G\LL	.	16g/LL	.	.
16B\	.	16d/	.	.
16c\	.	16e/	.	.
16d\JJ	.	16f#/JJ	.	.
16e\LL	.	16g/LL	.	.
16f#\	.	16a/	.	.
16d\	.	16b/	.	.
16c\JJ)	.	16a/JJ)	.	.
!!LO:LB:g=original
=71:|!	=71:|!	=71:|!	=71:|!	=71:|!
*>C2	*	*>C2	*	*
(16G\LL	.	(16g/LL	.	.
16B\	1	16d/	.	.
16c\	3	16e/	.	.
16d\JJ	.	16f#/JJ	.	.
*clefG2	*	*	*	*
16e/LL	1	16g/LL	.	.
16f#/	4	16a/	.	.
16g/	.	16b/	.	.
16a/JJ	.	16cc/JJ	1	.
=72	=72	=72	=72	=72
16g\LL	.	16gg\LL	.	.
16b\	1	16dd\	2	.
16cc\	3	16ee\	.	.
16dd\JJ	.	16ff#\JJ	.	.
16ee\LL	1	16gg\LL	.	.
16ff#\	4	16aa\	.	.
16gg\	.	16bb\	.	.
16aa\JJ	.	16ccc\JJ	.	.
=73	=73	=73	=73	=73
*8va	*	*8va	*	*
16gg\LL	.	16ggg\LL	.	.
16bb\	1	16ddd\	.	.
16ccc\	3	16eee\	.	.
16ddd\JJ	.	16fff#\JJ	.	.
16eee\LL	1	16ggg\LL	.	.
16fff#\	4	16aaa\	.	.
16ggg\	.	16bbb\	.	.
16aaa\JJ	.	16cccc\JJ	.	.
=74	=74	=74	=74	=74
8bbb\)	.	8dddd\) 8gggg	.	.
*X8va	*	*X8va	*	*
8r	.	8r	.	.
!	!	!LO:TX:a:i:t=pochissimo rit.	!	!
4bb~\ 4ddd	.	4r	.	.
=75	=75	=75	=75	=75
4r	.	4b\ 4dd	.	.
*clefF4	*	*	*	*
4B;\ 4d	.	4r;	.	.
!!LO:LB:g=original
=76!|:	=76!|:	=76!|:	=76!|:	=76!|:
*>D	*	*>D	*	*
*M6/8	*	*M6/8	*	*
!	!	!LO:TX:a:B:t=Molto vivace.	!	!
4ryy	.	8b/L 8dd	.	p
!	!	!LO:TX:b:i:t=staccato	!	!
.	.	8b/J 8dd	.	.
!	!	!LO:TX:b:i:t=m.s.	!	!
8g>\	.	8ryy	.	.
4ryy	.	8ee/L 8gg	.	.
.	.	8ee/J 8gg	.	.
8cc>\	.	8ryy	.	.
=77	=77	=77	=77	=77
4ryy	.	8b/L 8dd	.	.
.	.	8b/J 8dd	.	.
8g>\	.	8ryy	.	.
4ryy	.	8f#/L 8a	.	.
.	.	8f#/J 8a	.	.
8d>\	.	8ryy	.	.
=78	=78	=78	=78	=78
4ryy	.	8cc/L 8ee	.	.
.	.	8cc/J 8ee	.	.
8a>\	.	8ryy	.	.
4ryy	.	8g/L 8b	.	.
.	.	8g/J 8b	.	.
8e>\	.	8ryy	.	<
=79	=79	=79	=79	=79
4ryy	.	8d#X/L 8f#	.	.
.	.	8d#/J 8f#	.	.
8B\	.	8ryy	.	[
!	!	!LO:TX:b:i:t=m.d.	!	!
4ryy	.	8B</L	.	.
.	.	8B</J	.	.
8BB\	.	8ryy	.	.
=80	=80	=80	=80	=80
4ryy	.	8b/L 8ddn	.	p
.	.	8b/J 8dd	.	.
8g>\	.	8ryy	.	.
4ryy	.	8ee/L 8gg	.	.
.	.	8ee/J 8gg	.	.
8cc>\	.	8ryy	.	.
=81	=81	=81	=81	=81
4ryy	.	8b/L 8dd	.	.
.	.	8b/J 8dd	.	.
8g>\	.	8ryy	.	.
4ryy	.	8f#/L 8a	.	.
.	.	8f#/J 8a	.	.
8d>\	.	8ryy	.	.
!!LO:LB:g=original
=82	=82	=82	=82	=82
4ryy	.	8e/L 8cc	.	.
.	.	8e/J 8cc	.	.
8A\	.	8ryy	.	<
4ryy	.	8d#X/L 8b	.	.
.	.	8d#/J 8b	.	.
8B\	.	8ryy	.	[
=83	=83	=83	=83	=83
4ryy	.	8e/L 8g	.	.
.	.	8e/J 8g	.	.
8E\	.	8ryy	.	.
4ryy	.	8E</L	.	.
.	.	8E</J	.	.
8EE\	.	8ryy	.	.
=84	=84	=84	=84	=84
!	!	!LO:TX:t=P:problem=mixed beam	!	!
2.ryy	.	8e\L 8g	.	p
.	.	8e\ 8g	.	.
.	.	8c</J	.	.
!	!	!LO:TX:t=P:problem=mixed beam	!	!
.	.	8d\L 8b	.	.
.	.	8d\ 8b	.	.
.	.	8G</J	.	.
=85	=85	=85	=85	=85
4ryy	.	8f#/L 8a	.	.
.	.	8f#/J 8a	.	.
8d>\	.	8ryy	.	.
4ryy	.	8e/L 8cc	.	.
.	.	8e/J 8cc	.	.
8A\	.	8ryy	.	.
=86	=86	=86	=86	=86
!	!	!	!	!LO:HP:a
4ryy	.	8g/L 8b	.	<
.	.	8g/J 8b	.	.
8e>\	.	8ryy	.	.
4ryy	.	8e/L 8cc#X	.	.
.	.	8e/J 8cc#	.	[
8A\	.	8ryy	.	.
=87	=87	=87	=87	=87
4ryy	.	8f#/L 8dd	.	.
.	.	8f#/J 8dd	.	.
8d>\	.	8ryy	.	.
4ryy	.	8ff#/L 8aa	.	.
.	.	8ff#/J 8aa	.	.
8dd>\	.	8ryy	.	.
!!LO:LB:g=original
=88	=88	=88	=88	=88
4ryy	.	8f#/L 8a	.	p
.	.	8f#/J 8a	.	.
8d>\	.	8ryy	.	.
4ryy	.	8e/L 8cc	.	.
.	.	8e/J 8cc	.	.
8A\	.	8ryy	.	.
=89	=89	=89	=89	=89
4ryy	.	8g/L 8b	.	.
.	.	8g/J 8b	.	.
8e>\	.	8ryy	.	.
4ryy	.	8f#/L 8dd	.	.
.	.	8f#/J 8dd	.	.
8B\	.	8ryy	.	.
=90	=90	=90	=90	=90
!	!	!	!	!LO:HP:a
4ryy	.	8e/L 8cc	.	<
.	.	8e/J 8cc	.	.
8c\	.	8ryy	.	.
4ryy	.	8f#/L 8a#X	.	.
.	.	8f#/J 8a#	.	[
8F#\	.	8ryy	.	.
=91	=91	=91	=91	=91
4ryy	.	8d/L 8b	.	.
.	.	8d/J 8b	.	.
8B\	.	8ryy	.	.
4ryy	.	8dd/L 8bb	.	.
.	.	8dd/J 8bb	.	.
8b>\	.	8ryy	.	.
=92	=92	=92	=92	=92
4ryy	.	8b/L 8dd	.	p
.	.	8b/J 8dd	.	.
8g>\	.	8ryy	.	.
4ryy	.	8ee/L 8gg	.	.
.	.	8ee/J 8gg	.	.
8cc>\	.	8ryy	.	.
=93	=93	=93	=93	=93
4ryy	.	8b/L 8dd	.	.
.	.	8b/J 8dd	.	.
8g>\	.	8ryy	.	.
4ryy	.	8f#/L 8a	.	.
.	.	8f#/J 8a	.	.
8d>\	.	8ryy	.	.
!!LO:LB:g=original
=94	=94	=94	=94	=94
4ryy	.	8cc/L 8ee	.	.
.	.	8cc/J 8ee	.	.
8a>\	.	8ryy	.	<
4ryy	.	8g/L 8b	.	.
.	.	8g/J 8b	.	.
8e>\	.	8ryy	.	.
=95	=95	=95	=95	=95
4ryy	.	8e/L 8cc	.	.
.	.	8e/J 8cc	.	.
8A\	.	8ryy	.	.
4ryy	.	8f#/L 8a	.	.
.	.	8f#/J 8a	.	.
8d\	.	8ryy	.	.
=96	=96	=96	=96	=96
4ryy	.	8d/L 8g 8b 8dd	.	f
.	.	8d/J 8g 8b 8dd	.	.
8GG:\ 8D: 8B:	.	8ryy	.	.
4ryy	.	8g/L 8cc 8ee 8gg	.	.
.	.	8g/J 8cc 8ee 8gg	.	.
8C:\ 8G: 8e:	.	8ryy	.	.
=97	=97	=97	=97	=97
4ryy	.	8d/L 8g 8b 8dd	.	.
.	.	8d/J 8g 8b 8dd	.	.
8GG:\ 8D: 8B:	.	8ryy	.	.
4ryy	.	8B/L 8e 8g 8b	.	.
.	.	8B/J 8e 8g 8b	.	.
8EE:\ 8BB: 8G:	.	8ryy	.	.
=98	=98	=98	=98	=98
4ryy	.	8c/L 8e 8a 8cc	.	.
.	.	8c/J 8e 8a 8cc	.	.
8AA\ 8E 8A	.	8ryy	.	.
4ryy	.	8F#</L 8c 8f#	.	.
.	.	8F#</J 8c 8f#	.	.
8DD\ 8D	.	8ryy	.	.
=99	=99	=99	=99	=99
8ryy	.	8G/ 8B 8g	.	.
8GG\ 8D	.	8ryy	.	.
8ryy	.	8BB</ 8G<	.	.
4.GGG;<\ 4.GG	.	4.ryy	.	.
!!LO:PB:g=original
=100:|!	=100:|!	=100:|!	=100:|!	=100:|!
*>E	*	*>E	*	*
*k[b-e-]	*	*k[b-e-]	*	*
*B-:	*	*B-:	*	*
*M9/8	*	*M9/8	*	*
*^	*	*^	*	*
!	!	!	!LO:TX:a:i:t=ben cantato	!	!	!
!	!	!	!LO:TX:a:B:t=Andante con moto.	!	!	!
!	!	!	!LO:N:vis=4.	!	!	!
4.ryy	8GG:\L 8D: 8B-:	.	(4g/	[4.g\	.	.
!	!LO:TX:b:i:t=sempre legato	!	!	!	!	!
.	8f\	.	.	.	.	.
.	8e-\J	.	[<8b-/	.	.	.
4.ryy	8d\L	.	4.dd/)	2.g\] 2.b-]	.	.
.	8c\	.	.	.	.	.
.	8B-\J	.	.	.	.	.
8ryy	8A\L	.	4.dd~/	.	.	.
[4B-/	8B-\	.	.	.	.	.
.	[>8D\J	.	.	.	.	.
=101	=101	=101	=101	=101	=101	=101
!	!	!	!LO:N:vis=4.	!	!	!
8GG\L 8D] 8B-]	4.ryy	.	(4g/	4.g\	.	.
8f\	.	.	.	.	.	.
8e-\J	.	.	8b-/	.	.	.
8d/L	2.G\	.	4.dd:/)	8b-:\L	.	.
8c/	.	.	.	8a\	.	.
8B-/J	.	.	.	8g\J	.	.
8A/L	.	.	4.dd~/	8f#X\L	.	.
8B-/	.	.	.	8g\	.	.
[8d/J	.	.	.	8b-\J	.	.
=102	=102	=102	=102	=102	=102	=102
8d/L]	4.C\	.	4.ee-:~/	4.g:\	.	.
8c/	.	.	.	.	.	.
8B-/J	.	.	.	.	.	.
8A/L	4.FF\	.	(4ee-/	2.fn\	.	.
8G/	.	.	.	.	.	.
8A/J	.	.	8ff/	.	.	.
8B-/L	4.BB-\	.	4dd/	.	.	.
8c/	.	.	.	.	.	.
[8d/J	.	.	8b-/)	.	.	.
.	.	.	(8qb-/	.	.	.
!!LO:LB:g=original
=103	=103	=103	=103	=103	=103	=103
8d/L]	4.C\	.	4.ee-~/)	8g\L	.	.
8e-/	.	.	.	8cc\	.	>
8d/J	.	.	.	8b-\J	.	]
8c/L	4.F\	.	(4ee-/	8a\L	.	.
8B-/	.	.	.	8g\	.	.
8c/J	.	.	8ff/	8a\J	.	.
8d/L	4.BB-\	.	4dd/)	8b-\L	.	.
8c/	.	.	.	8a\	.	.
8d/J	.	.	(8b-/	8a-X\J	.	.
=104	=104	=104	=104	=104	=104	=104
4.B-/	2.E-\	.	4.gg/)	8g\L	.	.
.	.	.	.	8ee-\	.	.
.	.	.	.	8dd\J	.	.
2.An/	.	.	(4gg/	8cc#X\L	.	.
.	.	.	.	8an\	.	.
.	.	.	8aa/	8g\J	.	.
.	4.D\	.	4ff#X/	8f#X\L	.	.
.	.	.	.	8a\	.	.
.	.	.	8dd/	8ccn\J	.	.
=105	=105	=105	=105	=105	=105	=105
8G/L	2.E-\	.	4.gg/)	8b-\L	.	.
8g/	.	.	.	8ee-\	.	.
8fn/J	.	.	.	8dd\J	.	.
8e-/L	.	.	(4gg/	8cc\L	.	.
8d/	.	.	.	8b-\	.	.
8c#X/J	.	.	8aa/	8a\J	.	.
8d/L	4.D\	.	4ff#X/	8b-\L	.	.
8en/	.	.	.	8ccn\	.	.
8f#X/J	.	.	8dd/	8a\J	.	.
!!LO:LB:g=original
=106	=106	=106	=106	=106	=106	=106
4.fn/	2.D-X\	.	[4.ffn/)	8cc-X\L	.	.
.	.	.	.	8a-X\	.	.
.	.	.	.	8g\J	.	.
4.c-X/	.	.	(4ff/]	8a-\L	.	.
.	.	.	.	8g\	.	.
.	.	.	8gg/	8f\J	.	.
4.B-/	4.Cn\	.	4een/	8en\L	.	.
.	.	.	.	8f\	.	.
.	.	.	8ccn/	8g\J	.	.
=107	=107	=107	=107	=107	=107	=107
8B--/L	2.C-X\	.	[4.ee-X/)	8g-X\L	.	.
8G-X/	.	.	.	8e-\	.	.
8F/J	.	.	.	8d\J	.	.
8G-/L	.	.	4ee-/]	8e-\L	.	.
8A-X/	.	.	.	8f\	.	.
8An/J	.	.	(8ee-/	8f#X\J	.	.
!	!	!	!	!	!	!LO:HP:a
8B-X/L	4.BB-\	.	4dd/	8gn\L	.	>
8d/	.	.	.	8f#\	.	.
8d-X/J	.	.	8g/	8fn\J	.	]
=108	=108	=108	=108	=108	=108	=108
8c/	[2.C\	.	[4.a/	8e-\L	.	.
8r	.	.	.	8g\	.	.
8r	.	.	.	8f#X\J	.	.
4r	.	.	8a/L]	8fn\L	.	.
.	.	.	8b-/	8en\	.	.
8r	.	.	8cc/J	8e-X\J	.	.
4r	4.C\]	.	16%3b-/L	8d\L	.	.
.	.	.	.	8en\	.	.
.	.	.	16%3a/J	.	.	.
8r	.	.	.	[8f#X\J	.	.
*v	*v	*	*	*	*	*
!!LO:LB:g=original
=109	=109	=109	=109	=109	=109
2.BB-/	.	4dd/	8f#X\L]	.	.
.	.	.	8g\	.	.
.	.	8b-/	8f#\J	.	.
.	.	2.g/)	8fn\L	.	.
.	.	.	8en\	.	.
.	.	.	8e-X\J	.	.
4.E-\	.	.	8d\L	.	.
.	.	.	8c#X\	.	.
.	.	.	8cn\J	.	.
=110	=110	=110	=110	=110	=110
*^	*	*	*	*	*
8G/L	8C\	.	([4.a/	8e-\L	.	.
8e-/	8r	.	.	8g\	.	.
8d/J	8r	.	.	8f#X\J	.	.
!	!	!	!	!	!	!LO:HP:a
8d-X/L	4.r	.	8a/L]	8fn\L	.	<
8c/	.	.	8b-/	8en\	.	.
8G/J	.	.	8cc/J	8e-X\J	.	[
8F#X/L	4.Dn\	.	16%3b-/L	8dn\L	.	.
8G/	.	.	.	8en\	.	.
.	.	.	16%3a/J	.	.	.
8A/J	.	.	.	8f#X\J	.	.
=111	=111	=111	=111	=111	=111	=111
8Bn/L	4.GG\	.	16%3dd/L	8fn\L	.	.
8c/	.	.	.	8a-X\	.	.
.	.	.	16%3bn/J	.	.	.
8d/J	.	.	.	8g\J	.	.
!	!	!	!LO:TX:a:i:t=rit. assai	!	!	!
8d-X/L	8r	.	2.g/	8f\L	.	.
!	!	!	!	!	!	!LO:HP:a
8c/	8C\L	.	.	8en\	.	>
8Bn/J	8C#X\J	.	.	8e-X\J	.	.
8B-X/L	8Dn\	.	.	8dn\L	.	.
8A/	4E-\	.	.	8c#X\	.	]
8A-X/J	.	.	.	8cn\J	.	.
*v	*v	*	*	*	*	*
*	*	*v	*v	*	*
!!LO:LB:g=original
=112	=112	=112	=112	=112
[2.D\ [2.An	.	[2.d/) [2.f#X	.	.
4.D\] 4.A]	.	4.d/] 4.f#]	.	.
=113||	=113||	=113||	=113||	=113||
*M2/4	*	*M2/4	*	*
!	!	!LO:TX:a:B:t=Con moto.	!	!
(8GG/L	.	4r	.	mf
8BB-/J	.	.	.	.
4D\	.	(8G/L	.	.
.	.	8B-/J	.	.
=114	=114	=114	=114	=114
8BB-/L	.	4G/ 4d	.	.
8D/J	.	.	.	.
4G\	.	8B-/L	.	.
.	.	8d/J	.	.
=115	=115	=115	=115	=115
8E-\L	.	4c/ 4g	.	.
8G\J	.	.	.	<
4c\	.	8e-/L	.	.
.	.	8g/J	.	.
=116	=116	=116	=116	=116
8G\L	.	4d/ 4b-	.	.
8B-\J	.	.	.	.
4d\	.	8g/L	.	.
.	.	8b-/J	.	.
*clefG2	*	*	*	*
!!LO:LB:g=original
=117	=117	=117	=117	=117
8c/L	.	4g\ 4ee-	.	.
8e-/J	.	.	.	[
4g/	.	8cc\L	.	.
.	.	8ee-\J	.	.
=118	=118	=118	=118	=118
8e-/L	.	4b-\ 4gg	.	.
8g/J	.	.	.	.
4b-\)	.	8ee-\L	.	.
.	.	8gg\J)	.	.
*clefF4	*	*	*	*
=119	=119	=119	=119	=119
*	*	*^	*	*
!	!	!LO:TX:a:i:t=ad lib. rit. molto	!	!	!LO:DY:rj
[2E-:\ [2B-: [2g-X:	.	(4.bb-/	[2b-\ 2ee-	.	f >
.	.	8gg-X/	.	.	.
=120	=120	=120	=120	=120	=120
4E-\_ 4B-_ 4g-_	.	[4ee-/)	4b-\_ 4ee-	.	]
8E-\] 8B-] 8g-]	.	8ee-/]	8b-\] 8ee-	.	.
8r	.	8r	8r	.	.
=121	=121	=121	=121	=121	=121
*^	*	*	*	*	*
!	!	!	!LO:TX:b:i:t=dolce, espressivo	!	!	!
!	!	!	!LO:TX:a:i:t=  a tempo meno mosso	!	!	!
2c/	(4E-\	.	(8a/L	4gn\	.	.
.	.	.	8cc/	.	.	.
.	4D\)	.	8b-/	4f#X\	.	.
.	.	.	8a/J	.	.	.
*v	*v	*	*	*	*	*
=122	=122	=122	=122	=122	=122
(<8B-\L	.	8dd/L	4f#X\	.	.
8d\	.	8b-/J	.	.	.
8c\	.	4g/	8e-\L	.	.
8B-\J	.	.	8d\J	.	.
!!LO:PB:g=original
=123	=123	=123	=123	=123	=123
*^	*	*	*	*	*
2c#X/	4A\	.	8f#X/L	4ryy	.	.
!	!	!	!LO:TX:a:i:t=poco rit.	!	!	!
.	.	.	8g/J	.	.	.
.	4G\)	.	[4a/	8en\L	.	.
.	.	.	.	8e-X\J	.	.
=124	=124	=124	=124	=124	=124	=124
[2F#X/	4r	.	4a/]	[2d\	.	.
.	4D\	.	4b-/	.	.	.
*v	*v	*	*	*	*	*
*	*	*v	*v	*	*
=125||	=125||	=125||	=125||	=125||
*k[f#c#]	*	*k[f#c#]	*	*
*D:	*	*D:	*	*
*^	*	*	*	*
!	!	!	!LO:TX:a:B:t=Tempo I.	!	!
(<8BB\L	8F#/]	.	8d/]) 8b	.	p
8D\J	8ryy	.	8r	.	.
4F#\	4ryy	.	(8B/L	.	.
.	.	.	8d/J	.	.
*v	*v	*	*	*	*
=126	=126	=126	=126	=126
8D\L	.	4B/ 4f#	.	.
8F#\J	.	.	.	<
4B\	.	8d/L	.	.
.	.	8f#/J	.	.
=127	=127	=127	=127	=127
8G\L	.	4e/ 4b	.	.
8B\J	.	.	.	.
4e\	.	8g/L	.	.
.	.	8b/J	.	.
!!LO:LB:g=original
=128	=128	=128	=128	=128
8B\L	.	4f#/ 4dd	.	.
8d\J	.	.	.	.
4f#\	.	8b\L	.	.
.	.	8dd\J	.	.
*clefG2	*	*	*	*
=129	=129	=129	=129	=129
8d/L	.	4a\ 4ff#	.	.
8f#/J	.	.	.	.
4a/	.	8dd\L	.	.
.	.	8ff#\J	.	.
=130	=130	=130	=130	=130
!	!	!LO:TX:a:i:t=poco slargando	!	!
8f#/L	.	4cc#\ 4aa	.	.
8a/J	.	.	.	.
4cc#\)	.	8ff#\L	.	[
.	.	8aa\J)	.	.
*clefF4	*	*	*	*
=131	=131	=131	=131	=131
*	*	*^	*	*
!	!	!LO:TX:a:i:t=m.s.	!	!	!
!	!	!LO:TX:a:i:t=ad lib. rit. molto	!	!	!
[2F#:\ [2c#: [2d#X: [2f#:	.	(4.ccc#:/	[2a:\ [2cc#: [2dd#X: 2aa:	.	.
.	.	8aa/	.	.	.
=132	=132	=132	=132	=132	=132
4F#\] 4c#] 4d#] 4f#]	.	4ff#/)	4a\_ 4cc#] 4dd#]	.	.
4r	.	4r	4a\_	.	.
*	*	*v	*v	*	*
!!LO:LB:g=original
=133||	=133||	=133||	=133||	=133||
*k[b-e-]	*	*k[b-e-]	*	*
*g:	*	*g:	*	*
*^	*	*^	*	*
!	!	!	!LO:TX:b:i:t=dolce espressivo	!	!	!
!	!	!	!LO:TX:a:i:t=  a tempo meno mosso	!	!	!
2c/	(4E-\	.	(8a/L]	2f#X\	.	.
.	.	.	8cc/	.	.	.
.	4D\	.	8b-/	.	.	.
.	.	.	8a/J	.	.	.
=134	=134	=134	=134	=134	=134	=134
4ryy	8BB-\L	.	8dd/L	4d\ 4f#X	.	.
.	8D\	.	8b-/J)	.	.	.
!	!	!	!LO:TX:a:i:t=poco rit.	!	!	!
[4G/	8C\	.	4g/	(8e-\L	.	.
.	8BB-\J	.	.	8d\J	.	.
=135	=135	=135	=135	=135	=135	=135
4G/]	4AA\	.	(8f#X/L	4c#X\)	.	.
.	.	.	8g/J	.	.	.
4F#X:/	4DD:\)	.	4a/)	(8d\L	.	.
.	.	.	.	8cn\J)	.	.
*v	*v	*	*	*	*	*
*	*	*v	*v	*	*
=136	=136	=136	=136	=136
2GG/ 2D	.	2B-/ 2g	.	.
!!LO:LB:g=original
=137||	=137||	=137||	=137||	=137||
*k[f#]	*	*k[f#]	*	*
*G:	*	*G:	*	*
*M3/4	*	*M3/4	*	*
*	*	*^	*	*
!	!	!LO:TX:a:B:t=Allegretto capriccioso, ma non vivace (quasi Mazurka).	!	!	!
!	!	!LO:TX:b:i:t=espressivo	!	!	!
2G\ 2B	.	(8.g/L	2g\	.	p
.	.	16b/Jk	.	.	.
.	.	4dd/	.	.	.
(4G\ 4A 4c	.	4ee/	(4f#\	.	.
=138	=138	=138	=138	=138	=138
2G\) 2B	.	8.dd/L	4g\)	.	.
.	.	16b/Jk	.	.	.
.	.	4g/	4ryy	.	.
4E\	.	4c#X/) 4b	4ryy	.	.
=139	=139	=139	=139	=139	=139
2.D\	.	(8.a/L	2.cn\	.	.
.	.	16f#/Jk	.	.	.
.	.	4d/	.	.	.
.	.	8f#/L	.	.	.
.	.	8a/J	.	.	.
=140	=140	=140	=140	=140	=140
!	!	!LO:TX:t=P:problem=mixed beam	!	!	!
2GG\ 2D	.	2g/)	(8.B\L	.	.
.	.	.	16G</Jk	.	<
.	.	.	4B</	.	.
4r	.	4r	4d</)	.	[
=141	=141	=141	=141	=141	=141
2G\ 2B	.	(8.g/L	2g\	.	<
.	.	16b/Jk	.	.	.
.	.	4dd/	.	.	.
(4G\ 4A 4c	.	4ee/	(4f#\	.	[
!!LO:LB:g=original
=142	=142	=142	=142	=142	=142
2G\) 2B	.	8.dd/L	4g\)	.	.
.	.	16b/Jk	.	.	.
.	.	4g/	4ryy	.	.
4E\	.	4c#X/) 4b	4ryy	.	.
=143	=143	=143	=143	=143	=143
2.F#\	.	(8.a#X/L	2.e\	.	.
.	.	16f#/Jk	.	.	.
.	.	4a#/	.	.	.
.	.	4cc#X/	.	.	.
=144	=144	=144	=144	=144	=144
!	!	!LO:TX:t=P:problem=mixed beam	!	!	!
4BB\ 4F#	.	2b/)	(8.d\L	.	.
.	.	.	16B</Jk	.	<
!	!	!LO:TX:a:i:t=poco rit.	!	!	!
4r	.	.	4d</	.	.
4r	.	4r	4f#</)	.	[
=145	=145	=145	=145	=145	=145
!	!	!LO:TX:b:i:t=dolce	!	!	!
!	!	!LO:TX:a:i:t=  a tempo	!	!	!
2C/	.	(8.a/L	2e\ 2g	.	.
.	.	16cc/Jk	.	.	.
.	.	4b/	.	.	.
4D\	.	4a/	4c\ 4f#	.	.
=146	=146	=146	=146	=146	=146
2.GG/ 2.D	.	4b/	2.B\	.	.
.	.	4g/	.	.	.
.	.	4dd/)	.	.	.
!!LO:LB:g=original
=147	=147	=147	=147	=147	=147
2C\ 2G	.	(8.a/L	(2.e\	.	.
!	!	!	!	!	!LO:HP:t=poco cresc.
.	.	16cc/Jk	.	.	<
.	.	4b/	.	.	.
[4F#\	.	4a/	.	.	.
=148	=148	=148	=148	=148	=148
4BB\ 4F#]	.	4b/)	4d#X\)	.	.
[2E\	.	2G/ [<2g	(4dn\	.	.
.	.	.	4c#X\	.	.
=149	=149	=149	=149	=149	=149
*^	*	*	*	*	*
4E/]	8E\L	.	(8.a/L	[2cn\) 2g]	.	.
.	8AA\J	.	.	.	.	.
.	.	.	16cc/Jk	.	.	.
2ryy	2D\	.	4b/	.	.	>
.	.	.	4a/	4c\] 4f#	.	.
*v	*v	*	*	*	*	*
=150	=150	=150	=150	=150	=150
2GG/ 2D	.	4b/	2B\	.	>
!	!	!LO:TX:a:i:t=poco rit.	!	!	!
.	.	4g/	.	.	.
4E:\ 4B: 4c#X:	.	4g:\) 4gg:	4ryy	.	] p
=151	=151	=151	=151	=151	=151
!	!	!LO:TX:a:i:t=  a tempo	!	!	!
2D\ 2cn	.	(8.a/L	8g\L	.	.
.	.	.	[8f#\J	.	.
.	.	16cc/Jk	.	.	.
.	.	4b/	4f#\]	.	.
[4D\	.	4c/ 4f# 4a	4ryy	.	.
*	*	*v	*v	*	*
=152	=152	=152	=152	=152
*ped	*	*	*	*
4GG/ 4D]	.	4B/) 4g 4b	.	.
4r	.	[2g/	.	.
4r	.	.	.	.
!!LO:PB:g=original
=153	=153	=153	=153	=153
*	*	*^	*	*
!	!	!	!	!	!LO:HP:t=poco a poco cresc.:ext=s
2G\ 2B	.	(8.g/L]	2g\	.	<
.	.	16b/Jk	.	.	.
*Xped	*	*	*	*	*
.	.	4dd/	.	.	.
4D:\ 4c:	.	4ee/	4e:\ 4f#:	.	.
=154	=154	=154	=154	=154	=154
2GG:\ 2D: 2B:	.	8.dd/L	2d\ 2g	.	.
.	.	16b/Jk	.	.	.
.	.	4g/	.	.	.
4AA:\ 4G:	.	4B:/ 4c#X: 4b:	4ryy	.	[
=155	=155	=155	=155	=155	=155
2DD/ 2F#	.	8.a/L	2.cn\	.	.
.	.	16f#/Jk	.	.	.
.	.	4d/	.	.	.
[4D\	.	8f#/L	.	.	.
.	.	8a/J	.	.	.
*	*	*v	*v	*	*
=156	=156	=156	=156	=156
*^	*	*	*	*
8.d>\L	4GG\ 4D]	.	2g/)	.	.
!LO:TX:b:i:t=poco marc.	!	!	!	!	!
(16G/Jk	.	.	.	.	.
4B/	4r	.	.	.	.
4d/	4r	.	4r	.	.
*v	*v	*	*	*	*
!!LO:LB:g=original
=157	=157	=157	=157	=157
2G~\ 2B 2e#X	.	(8.g/L	.	.
.	.	16b/Jk	.	.
.	.	4dd\	.	.
4F#~\ 4A#X 4f#	.	4een\	.	.
=158	=158	=158	=158	=158
*^	*	*	*	*
!	!	!	!	!	!LO:DY:t=poco f
2B~/) 2g	(4.Fn\	.	8.dd\L	.	f
.	.	.	16b\Jk	.	.
.	.	.	4g/	.	.
.	8E\	.	.	.	.
[4G/	4D\	.	4d/ 4b	.	.
=159	=159	=159	=159	=159	=159
*	*	*	*^	*	*
2G/]	4C\	.	8.a/L	4e\	.	.
.	.	.	16e/Jk	.	.	.
.	4BB\	.	4d/	4r	.	>
!	!	!	!LO:TX:a:i:t=dim. molto ed allargando	!	!	!
(4D/	4AA\	.	8f#/L	4c\	.	.
.	.	.	8a/J	.	.	]]
*	*	*	*v	*v	*	*
=160	=160	=160	=160	=160	=160
8.D#X/L	2.GG\)	.	2.B/) 2.d#X 2.b	.	.
16BB/Jk	.	.	.	.	.
4D#/	.	.	.	.	.
[4G/)	.	.	.	.	.
*v	*v	*	*	*	*
!!LO:LB:g=original
=161	=161	=161	=161	=161
*	*	*^	*	*
!	!	!LO:TX:b:i:t=espressivo	!	!	!
!	!	!LO:TX:a:i:t=a tempo	!	!	!
4C\ 4G]	.	(8.a/L	(8e\L	.	p
.	.	.	8e-X\J)	.	.
.	.	16cc/Jk	.	.	.
2D\ [2F#	.	4b/	[2dn\	.	.
.	.	4a/	.	.	.
=162	=162	=162	=162	=162	=162
*^	*	*	*	*	*
8.F#/L]	4BB\	.	4b/)	4d\]	.	.
(16D/Jk	.	.	.	.	.	.
4F#/	4r	.	4r	4ryy	.	<
4B/	4r	.	4r	4ryy	.	[
=163	=163	=163	=163	=163	=163	=163
!	!	!	!	!	!	!LO:HP:t=poco cresc.
2C\) 2G 2c	2ryy	.	(8.a/L	2e\ 2g	.	<
.	.	.	16cc/Jk	.	.	.
.	.	.	4b/	.	.	.
(4c#X/	4F#\	.	4a#X/	4ryy	.	.
*	*	*	*v	*v	*	*
=164	=164	=164	=164	=164	=164
8.B/L	4BB\	.	4d/) 4f# 4b	.	.
16F#/Jk	.	.	.	.	<
4B/	4r	.	4r	.	.
4d/	[4E\	.	(>4fn/ 4g#X	.	[
!!LO:LB:g=original
=165	=165	=165	=165	=165	=165
*	*	*	*^	*	*
2.c/)	(8E\L]	.	8.a/L	2gn\	.	.
.	8E-X\J	.	.	.	.	.
.	.	.	16cc/Jk	.	.	.
.	2D\)	.	4b/	.	.	>
.	.	.	4a/	4f#X\	.	.
*v	*v	*	*	*	*	*
=166	=166	=166	=166	=166	=166
2GG/ 2D	.	4b/	2B\	.	]
!	!	!LO:TX:a:i:t=rit.	!	!	!
.	.	4g/)	.	.	.
!	!	!LO:TX:a:i:t=m.s.:rj	!	!	!
4E:\ 4B: 4c#X: 4e:	.	4bb:;/	4g:\ 4b: 4cc#X: 4gg:	.	pp
=167	=167	=167	=167	=167	=167
!	!	!LO:TX:a:i:t=espressivo	!	!	!
2.E-X\	.	(8.a/L	2cn\ [2g	.	.
.	.	16ccn/Jk	.	.	.
.	.	4b/	.	.	.
.	.	4c#X/ 4g] 4a	4ryy	.	.
*	*	*v	*v	*	*
=168	=168	=168	=168	=168
*ped	*	*	*	*
4D\ 4A	.	4d/ 4f# 4dd	.	.
*	*	*clefF4	*	*
!	!	!LO:TX:a:i:t=rit.	!	!
4r	.	2DD~/)	.	.
4r	.	.	.	.
*Xped	*	*	*	*
!!LO:LB:g=original
=169||	=169||	=169||	=169||	=169||
*M2/4	*	*M2/4	*	*
*	*	*^	*	*
*ped	*	*	*	*	*
!	!	!LO:TX:a:B:t=Allegro vivo.	!	!	!
8GG/	.	8G'/L	(16G\LL	.	p
!	!	!LO:TX:b:i:t=ma marcato	!	!	!
.	.	.	16D\	.	.
8r	.	8B'/J	16E\	.	.
.	.	.	16D\JJ	.	.
4d^<\	.	4ryy	16E\LL	.	.
.	.	.	16D\	.	.
.	.	.	16E\	.	.
.	.	.	16D\JJ)	.	.
=170	=170	=170	=170	=170	=170
4r	.	8G'/L	(16G\LL	.	.
.	.	.	16D\	.	.
.	.	8B'/J	16E\	.	.
.	.	.	16D\JJ	.	.
4d^<\	.	4ryy	16E\LL	.	.
.	.	.	16D\	.	.
.	.	.	16E\	.	.
.	.	.	16D\JJ)	.	.
*Xped	*	*	*	*	*
*	*	*clefG2	*	*	*
=171	=171	=171	=171	=171	=171
!	!	!LO:TX:t=P:problem=mixed beam	!	!	!
8C\	.	8e/	(16e\LL	.	.
.	.	.	16G</	.	.
8r	.	8ryy	16A</ 16B<	.	.
.	.	.	16G</JJ	.	.
!	!	!LO:TX:t=P:problem=mixed beam	!	!	!
8F#\ 8G#X	.	4ryy	16G#X</LL	.	.
.	.	.	16A</	.	.
8r	.	.	16c\	.	.
.	.	.	16e\JJ)	.	.
=172	=172	=172	=172	=172	=172
!	!	!LO:TX:t=P:problem=mixed beam	!	!	!
8BB\	.	8d/	(16d\LL	.	.
.	.	.	16F#</	.	.
8r	.	8ryy	16Gn</ 16A<	.	.
.	.	.	16F#</JJ	.	.
!	!	!LO:TX:t=P:problem=mixed beam	!	!	!
8E\	.	4ryy	16G</LL	.	.
.	.	.	16A</	.	.
8r	.	.	16B</	.	.
.	.	.	16d\JJ)	.	.
!!LO:LB:g=original
=173	=173	=173	=173	=173	=173
!	!	!LO:TX:t=P:problem=mixed beam	!	!	!
8AA\	.	8c/	(16c\LL	.	.
.	.	.	16E</	.	.
8r	.	8ryy	16G</	.	.
.	.	.	16E</JJ)	.	.
!	!	!LO:TX:t=P:problem=mixed beam	!	!	!
8DD\	.	8c/	(16c\LL	.	.
.	.	.	16E</	.	.
8r	.	8ryy	16F#</	.	.
.	.	.	16E</JJ)	.	.
*	*	*v	*v	*	*
=174	=174	=174	=174	=174
8GG\ 8D	.	(16B</LL	.	.
.	.	16F#</	.	.
8r	.	16G</	.	<
.	.	16A</JJ	.	.
!	!	!LO:TX:t=P:problem=mixed beam	!	!
4r	.	16B</LL	.	.
.	.	16A</	.	.
.	.	16B</	.	[
.	.	16d\JJ)	.	.
=175	=175	=175	=175	=175
*	*	*^	*	*
8E\	.	(16g/LL	8g\	.	.
.	.	16B/	.	.	.
8r	.	16d/	8ryy	.	.
.	.	16B/JJ)	.	.	>
8AA/	.	(16g/LL	8g\	.	.
.	.	16B/	.	.	.
8r	.	16c#X/	8ryy	.	.
.	.	16B/JJ)	.	.	]
*	*	*v	*v	*	*
=176	=176	=176	=176	=176
8D\ 8A	.	(16f#/LL	.	.
.	.	16c#X/	.	.
8r	.	16d/	.	.
.	.	16e/JJ	.	.
4r	.	16f#/LL	.	.
.	.	16e/	.	.
.	.	16f#/	.	.
.	.	16a/JJ)	.	.
!!LO:PB:g=original
=177	=177	=177	=177	=177
*	*	*^	*	*
*ped	*	*	*	*	*
8GG/ 8D	.	8g'/L	(16g\LL	.	.
.	.	.	16d\	.	.
8r	.	8b'/J	16e\	.	.
.	.	.	16d\JJ	.	.
*clefG2	*	*	*	*	*
4dd^\	.	4ryy	16e\LL	.	.
.	.	.	16d\	.	.
.	.	.	16e\	.	.
.	.	.	16d\JJ)	.	.
=178	=178	=178	=178	=178	=178
4r	.	8g'/L	(16g\LL	.	.
.	.	.	16d\	.	.
.	.	8b'/J	16e\	.	.
.	.	.	16d\JJ	.	.
4dd^\	.	4ryy	16e\LL	.	.
.	.	.	16d\	.	.
.	.	.	16e\	.	.
.	.	.	16d\JJ)	.	.
*Xped	*	*	*	*	*
*clefF4	*	*	*	*	*
=179	=179	=179	=179	=179	=179
8C/	.	(16ee/LL	8ee\	.	.
.	.	16g/	.	.	.
8r	.	16a/ 16b	8ryy	.	.
.	.	16g/JJ	.	.	.
8f#\	.	16g#X/LL	4ryy	.	.
.	.	16a/	.	.	.
8r	.	16cc/	.	.	.
.	.	16ee/JJ)	.	.	.
=180	=180	=180	=180	=180	=180
8BB/	.	(16dd/LL	8dd\	.	.
.	.	16f#/	.	.	.
8r	.	16gn/ 16a	8ryy	.	.
.	.	16f#/JJ	.	.	.
8e\	.	16g/LL	4ryy	.	.
.	.	16a/	.	.	.
8r	.	16b/	.	.	.
.	.	16dd/JJ)	.	.	.
!!LO:LB:g=original
=181	=181	=181	=181	=181	=181
8A\	.	(16cc/LL	8cc\	.	.
.	.	16e/	.	.	.
8r	.	16g/	8ryy	.	.
.	.	16e/JJ	.	.	.
8D\	.	16cc/LL	8cc\	.	.
.	.	16e/	.	.	.
8r	.	16f#/	8ryy	.	.
.	.	16e/JJ)	.	.	.
*	*	*v	*v	*	*
=182	=182	=182	=182	=182
8G\ 8d	.	(16b/LL	.	.
.	.	16f#/	.	<
8r	.	16g/	.	.
.	.	16a/JJ	.	.
4r	.	16b\LL	1	.
.	.	16dd\	.	.
.	.	16ff#\	.	[
.	.	16gg\JJ)	.	.
=183	=183	=183	=183	=183
*	*	*^	*	*
8f#\	.	8aa/	(16aa\LL	.	.
.	.	.	16cc\	.	.
8r	.	8ryy	16ee\	.	.
.	.	.	16cc\JJ)	.	.
8B\	.	8aa/	(16aa\LL	.	.
.	.	.	16cc\	.	.
8r	.	8ryy	16dd#X\	.	.
.	.	.	16cc\JJ)	.	.
*	*	*v	*v	*	*
=184	=184	=184	=184	=184
8E:\ 8B: 8g:	.	(16gg\LL	.	.
.	.	16dd#X\	.	<
8r	.	16ee\	.	.
.	.	16ff#\JJ	.	.
*	*	*8va	*	*
4r	.	16gg\LL	1	.
.	.	16bb\	.	.
.	.	16ddd#X\	.	.
.	.	16eee\JJ)	.	[
!!LO:LB:g=original
=185	=185	=185	=185	=185
*	*	*^	*	*
!	!	!LO:TX:b:i:t=marcato	!	!	!
4r	.	4ggg^/	(16ggg\LL	.	.
.	.	.	16eee\	.	.
.	.	.	16ccc#X\	.	.
.	.	.	16bb\JJ)	.	.
*	*	*	*X8va	*	*
*clefG2	*	*	*	*	*
(16aa#X\LL	.	4ryy	4aa#X<^/	.	.
16ee\	.	.	.	.	.
16cc#X\	.	.	.	.	.
16f#\JJ)	.	.	.	.	.
*clefF4	*	*	*	*	*
=186	=186	=186	=186	=186	=186
4ryy	.	4b^\	N(<16b/LL	.	.
.	.	.	16d/	.	.
.	.	.	16f#/	.	.
.	.	.	16c#X/JJ	.	.
16B\LL	.	4ryy	4ryy	.	.
16E#X\	.	.	.	.	.
16F#\	.	.	.	.	.
16BB\JJN)>	.	.	.	.	.
=187	=187	=187	=187	=187	=187
4ryy	.	4ffn^/	(16ff\LL	.	.
.	.	.	16dd\	.	.
.	.	.	16b\	.	.
.	.	.	16a\JJ)	.	.
(16g#X\LL	.	4ryy	4g#X<^/	.	.
16d\	.	.	.	.	.
16B\	.	.	.	.	.
16E\JJ)	.	.	.	.	.
=188	=188	=188	=188	=188	=188
4ryy	.	N(<16a/LL	4a^>\	.	.
.	.	16cn/	.	.	.
.	.	16e/	.	.	.
.	.	16B/JJ	.	.	.
16A\LL	.	4ryy	4ryy	.	.
16D#X\	.	.	.	.	.
16E\	.	.	.	.	.
16AA\JJN)>	.	.	.	.	.
!!LO:LB:g=original
=189	=189	=189	=189	=189	=189
4ryy	.	N(<16a/LL	4a^>\	.	.
.	.	16c/	.	.	.
.	.	16e/	.	.	.
.	.	16B/JJ	.	.	<
16A\LL	.	4ryy	4ryy	.	.
16D#X\	.	.	.	.	.
16E\	.	.	.	.	.
16AA\JJN)>	.	.	.	.	.
=190	=190	=190	=190	=190	=190
4ryy	.	N(<16cc/LL	4cc^>\	.	.
.	.	16g#X/	.	.	.
.	.	16a/	.	.	.
.	.	16e/JJ	.	.	.
16c\LL	.	4ryy	4ryy	.	.
16G#X\	.	.	.	.	.
16A\	.	.	.	.	.
16Gn\JJN)>	.	.	.	.	[
=191	=191	=191	=191	=191	=191
4ryy	.	4ee^/	N(<16ee\LL	.	.
.	.	.	16b\	.	.
.	.	.	16cc\	.	.
.	.	.	16a\JJ	.	.
16e\LL	.	4ryy	4ryy	.	.
16B\	.	.	.	.	.
16c\	.	.	.	.	.
16F#\JJN)>	.	.	.	.	.
=192	=192	=192	=192	=192	=192
8r	.	8dd#X/	(<16dd#\LL	.	.
.	.	.	16cc\	.	>
8d#X'\L	.	8ryy	16b\	.	.
.	.	.	16a\JJ	.	.
8A'\	.	4ryy	16g/LL	.	.
.	.	.	16f#/	.	.
8BB'\J	.	.	16e/	.	.
.	.	.	16d#X/JJ)	.	]
=193	=193	=193	=193	=193	=193
4ryy	.	4ee^/	N(<16ee\LL	.	.
.	.	.	16g\	.	.
.	.	.	16b\	.	.
.	.	.	16f#\JJ	.	<
16e\LL	.	4ryy	4ryy	.	.
16A#X\	.	.	.	.	.
16B\	.	.	.	.	.
16E\JJN)>	.	.	.	.	.
!!LO:LB:g=original
=194	=194	=194	=194	=194	=194
4ryy	.	4gg^/	N(<16gg\LL	.	.
.	.	.	16dd#X\	.	.
.	.	.	16ee\	.	.
.	.	.	16b\JJ	.	.
*clefG2	*	*	*	*	*
16g/LL	.	4ryy	4ryy	.	.
16d#X/	.	.	.	.	.
16e/	.	.	.	.	.
16dn/JJN)>	.	.	.	.	[
=195	=195	=195	=195	=195	=195
4ryy	.	4bb^/	N(<16bb\LL	.	.
.	.	.	16ff#\	.	.
.	.	.	16gg\	.	.
.	.	.	16ee\JJ	.	.
16b/LL	.	4ryy	4ryy	.	.
16f#/	.	.	.	.	.
16g/	.	.	.	.	.
16c#X/JJN)>	.	.	.	.	.
*clefF4	*	*	*	*	*
=196	=196	=196	=196	=196	=196
8r	.	8aa#X/	(16aa#\LL	.	.
.	.	.	16gg\	.	.
8a#X'\L	.	8ryy	16ff#\	.	>
.	.	.	16ee\JJ	.	.
8e'\	.	4ryy	16dd\LL	.	.
.	.	.	16cc#X\	.	.
8F#'\J	.	.	16b\	.	]
.	.	.	16a#X\JJ)	.	.
=197	=197	=197	=197	=197	=197
*ped	*	*	*	*	*
8BB'\ 8F#	.	8b'/L	(16b\LL	.	p
.	.	.	16f#\	.	.
8r	.	8dd'/J	16g\	.	.
.	.	.	16f#\JJ	.	.
*clefG2	*	*	*	*	*
4ff#^\	.	4ryy	16g\LL	.	.
.	.	.	16f#\	.	.
.	.	.	16g\	.	.
.	.	.	16f#\JJ)	.	.
!!LO:LB:g=original
=198	=198	=198	=198	=198	=198
4r	.	8b'/L	(16b\LL	.	.
.	.	.	16f#\	.	.
.	.	8dd'/J	16g\	.	.
.	.	.	16f#\JJ	.	.
4ff#^\	.	4ryy	16g\LL	.	.
.	.	.	16f#\	.	.
.	.	.	16g\	.	.
*Xped	*	*	*	*	*
.	.	.	16f#\JJ)	.	.
*clefF4	*	*	*	*	*
=199	=199	=199	=199	=199	=199
8E'\L	.	8dd/	(16dd\LL	.	.
.	.	.	16b\	.	.
8B'\	.	8ryy	16cc#X\	.	.
.	.	.	16b\JJ)	.	<
8f#'\J	.	8ff#/	(16ff#\LL	.	.
.	.	.	16b\	.	.
8r	.	8ryy	16cc#\	.	.
.	.	.	16b\JJ)	.	.
=200	=200	=200	=200	=200	=200
8r	.	8ff##X/	(16ff##\LL	.	.
.	.	.	16b\	.	[
8e'\L	.	8ryy	16cc#X\	.	.
.	.	.	16b\JJ)	.	.
8B'\	.	8gg#X/	(16gg#\LL	.	.
.	.	.	16b\	.	.
8E'\J	.	8ryy	16cc#\	.	.
.	.	.	16b\JJ)	.	.
=201	=201	=201	=201	=201	=201
*ped	*	*	*	*	*
8A\ 8e	.	8aa/L	(16aa\LL	.	.
.	.	.	16ee\	.	.
8r	.	8ccc#X/J	16ff#\	.	.
.	.	.	16ee\JJ	.	.
*clefG2	*	*	*	*	*
4eee^\	.	4ryy	16ff#\LL	.	.
.	.	.	16ee\	.	.
.	.	.	16ff#\	.	.
.	.	.	16ee\JJ)	.	.
!!LO:PB:g=original
=202	=202	=202	=202	=202	=202
4r	.	8aa/L	(16aa\LL	.	.
.	.	.	16ee\	.	.
.	.	8ccc#X/J	16ff#\	.	.
.	.	.	16ee\JJ	.	.
4eee\	.	4ryy	16ff#\LL	.	.
.	.	.	16ee\	.	.
.	.	.	16ff#\	.	.
*Xped	*	*	*	*	*
.	.	.	16ee\JJ)	.	.
=203	=203	=203	=203	=203	=203
8A'/L	.	8cccn/	(16cccn\LL	.	.
.	.	.	16ee\	.	>
8e'/	.	8ryy	16ff#\	.	.
.	.	.	16ee\JJ)	.	.
*	*	*	*8va	*	*
8cc'/J	.	8eee/	(16eee\LL	.	.
.	.	.	16aa\	.	.
8r	.	8ryy	16bb\	.	.
.	.	.	16aa\JJ)	.	]
=204	=204	=204	=204	=204	=204
8r	.	8eee#X/	(16eee#\LL	.	.
.	.	.	16aa\	.	.
8cc'/L	.	8ryy	16bb\	.	.
.	.	.	16aa\JJ)	.	.
8a'/	.	8fff#/	(16fff#\LL	.	.
.	.	.	16aa\	.	.
8d'/J	.	8ryy	16bb\	.	.
.	.	.	16aa\JJ)	.	.
=205	=205	=205	=205	=205	=205
!LO:TX:b:i:t=staccato e leggiero	!	!	!	!	!
8G/L	.	8ggg/	(16ggg\LL	.	.
.	.	.	16bb\	.	.
8B/	.	8ryy	16ddd\	.	.
.	.	.	16bb\JJ)	.	.
8c#X/	.	4ryy	(<16ggg\LL	.	.
.	.	.	16bb\	.	.
8e/J	.	.	16ccc#X\	.	.
.	.	.	16bb\JJ)	.	.
*	*	*	*X8va	*	*
*	*	*v	*v	*	*
!!LO:LB:g=original
=206	=206	=206	=206	=206
8a\L	.	(16fff#\LL	.	.
.	.	16aa\	.	.
8cc#X\	.	16ccc#X\	.	.
.	.	16aa\JJ)	.	.
8dd\	.	(16fff#\LL	.	.
.	.	16aa\	.	.
8ff#\J	.	16bb\	.	.
.	.	16aa\JJ)	.	.
*clefF4	*	*	*	*
=207	=207	=207	=207	=207
8E\L	.	(16eee\LL	.	.
!	!	!LO:TX:b:i:t=poco rinforz.	!	!
.	.	16gg\	.	.
8G\	.	16bb\	.	.
.	.	16gg\JJ)	.	.
8A\	.	(16eee\LL	.	.
.	.	16gg\	.	.
8c#X\J	.	16aa\	.	.
.	.	16gg\JJ)	.	.
*clefG2	*	*	*	*
=208	=208	=208	=208	=208
8f#/L	.	(16ddd\LL	.	.
.	.	16ff#\	.	.
8a/	.	16aa\	.	.
.	.	16ff#\JJ)	.	.
8b/	.	(16ddd\LL	.	.
.	.	16ff#\	.	.
8dd/J	.	16gg\	.	.
.	.	16ff#\JJ)	.	.
=209	=209	=209	=209	=209
8r	.	(16ccc#X\LL	.	.
.	.	16ee\	.	.
(8b\	.	16gg\	.	.
.	.	16ee\JJ)	.	.
4f#/) 4a#X	.	(16ccc#\LL	.	.
.	.	16ee\	.	.
.	.	16ff#\	.	.
.	.	16ee\JJ)	.	.
!!LO:LB:g=original
=210	=210	=210	=210	=210
8r	.	(16bb\LL	.	.
.	.	16dd\	.	>
(>8an/	.	16ff#\	.	.
.	.	16dd\JJ)	.	.
4e/) 4g#X	.	(16bb\LL	.	.
.	.	16dd\	.	]
.	.	16ee\	.	.
.	.	16dd\JJ)	.	.
=211	=211	=211	=211	=211
*	*	*^	*	*
8A/	.	8dd/L	(16dd\LL	.	.
.	.	.	16a\	.	.
8r	.	8ff#/J	16b\	.	.
.	.	.	16a\JJ	.	.
4aa^\	.	4ryy	16b\LL	.	.
.	.	.	16a\	.	.
.	.	.	16b\	.	.
.	.	.	16a\JJ)	.	.
*	*	*v	*v	*	*
=212	=212	=212	=212	=212
8d'/L	.	(16ff#\LL	.	.
.	.	16dd\	.	.
8f#'/J	.	16ee\	.	.
.	.	16dd\JJ	.	.
4a~/	.	16ff#\LL	.	.
.	.	16dd\	.	.
.	.	16ee\	.	.
.	.	16dd\JJ)	.	.
=213	=213	=213	=213	=213
*	*	*^	*	*
8A/	.	8dd#X/L	(16dd#\LL	.	.
.	.	.	16b\	.	.
8r	.	8ff#/J	16cc\	.	.
!	!	!	!	!	!LO:HP:a:t=poco a poco cresc._:ext=s:ext=ud
.	.	.	16b\JJ	.	<
4bb^\	.	4ryy	16cc\LL	.	.
.	.	.	16b\	.	.
.	.	.	16cc\	.	.
.	.	.	16b\JJ)	.	.
*	*	*v	*v	*	*
!!LO:LB:g=original
=214	=214	=214	=214	=214
8d#X'/L	.	(16ff#\LL	.	.
.	.	16dd#X\	.	.
8f#'/J	.	16ee\	.	.
.	.	16dd#\JJ	.	.
4b~\	.	16ff#\LL	.	.
.	.	16dd#\	.	.
.	.	16ee\	.	.
.	.	16dd#\JJ)	.	.
=215	=215	=215	=215	=215
*	*	*^	*	*
8A/ 8e	.	8ee/L	(16ee\LL	.	.
.	.	.	16b\	.	.
8r	.	8gg/J	16cc\	.	.
.	.	.	16b\JJ	.	.
4bb^\	.	4ryy	16cc\LL	.	.
.	.	.	16b\	.	.
.	.	.	16cc\	.	.
.	.	.	16b\JJ)	.	.
*	*	*v	*v	*	*
=216	=216	=216	=216	=216
8e'/L	.	(16gg\LL	.	[
.	.	16ee\	.	.
8g'/J	.	16ff#\	.	.
.	.	16ee\JJ	.	.
4b~\	.	16gg\LL	.	.
.	.	16ee\	.	.
.	.	16ff#\	.	.
.	.	16ee\JJ)	.	.
=217	=217	=217	=217	=217
*	*	*8va	*	*
8A/L 8e	.	(16ccc#X/LL	.	.
.	.	16gg#X/	.	.
8cc#X/	1	16aa/	.	<
.	.	16bb/JJ	.	.
8a/	.	16ccc#\LL	.	.
.	.	16ddd\	.	.
8g/J	.	16eee\	.	.
.	.	16fff#\JJ	.	.
*clefF4	*	*	*	*
!!LO:LB:g=original
=218	=218	=218	=218	=218
8e\L	1	16ggg\LL	.	.
.	.	16ddd#X\	.	.
8c#X\	.	16eee\	.	.
.	.	16fff#\JJ	.	[
8A\	.	16ggg\LL	.	.
.	.	16aaa\	.	.
8E\J	.	16bbb\	.	.
.	.	16cccc#X\JJ)	.	.
=219	=219	=219	=219	=219
8D:\ 8A: 8f#:	.	N(16ddddn\LL	.	.
.	.	16aaa\	.	.
8r	.	16fff#\	.	.
.	.	16eee\JJ	.	.
*	*	*X8va	*	*
*clefG2	*	*	*	*
16ddd\LL	.	4ryy	.	.
16aa\	.	.	.	.
16ff#\	.	.	.	.
16ee\JJ	.	.	.	.
=220	=220	=220	=220	=220
4ryy	.	16dd/LL	.	.
.	.	16a/	.	.
.	.	16f#/	.	.
.	.	16e/JJ	.	.
*clefF4	*	*	*	*
16d\LL	.	4ryy	.	.
16A\	.	.	.	.
16F#\	.	.	.	.
16D\JJN)	.	.	.	.
=221	=221	=221	=221	=221
*ped	*	*	*	*
NN(>16BB\LL	.	4ryy	.	.
16F#\	.	.	.	.
16G#X\	.	.	.	.
16B\JJ	.	.	.	.
4ryy	.	16d/LL	.	.
.	.	16f#/	.	.
.	.	16g#X/	.	.
.	.	16dd/JJNN)<	.	.
!!LO:LB:g=original
=222	=222	=222	=222	=222
!	!	!LO:TX:b:i:t=m.s.	!	!
4ff#>^\	.	4ryy	.	.
*Xped	*	*	*	*
4A^\ 4c#X 4f#	.	4a^\ 4cc#X 4ff# 4aa	.	.
=223	=223	=223	=223	=223
4D:\ 4A: 4f#:	.	N(>16ddd\LL	.	.
.	.	16aa\	.	.
.	.	16ff#\	.	.
.	.	16ee\JJ	.	.
*clefG2	*	*	*	*
16dd/LL	.	4ryy	.	.
16a/	.	.	.	.
16f#/	.	.	.	.
16e/JJ	.	.	.	.
*clefF4	*	*	*	*
=224	=224	=224	=224	=224
!	!	!LO:TX:t=P:problem=mixed beam	!	!
16d>\LL	.	2ryy	.	.
16A/	.	.	.	.
16F#/	.	.	.	.
16E/JJ	.	.	.	.
16D\LL	.	.	.	.
16BB\	.	.	.	.
16AA\	.	.	.	.
16DD\JJN)	.	.	.	.
=225	=225	=225	=225	=225
*ped	*	*	*	*
(>16BBB\LL	.	2ryy	.	.
16FF#\	.	.	.	.
16BB\JJ	.	.	.	.
16D/	.	.	.	.
!	!	!LO:TX:t=P:problem=mixed beam	!	!
16F#/LL	.	.	.	.
16G#X/	.	.	.	.
16B/	.	.	.	.
16d>\JJ)	.	.	.	.
=226	=226	=226	=226	=226
!LO:TX:a:i:t=m.s.	!	!	!	!
4f#>^\	.	4ryy	.	.
*Xped	*	*	*	*
4AA^/ 4E	.	4A^>/ 4c#X 4gn 4a	.	.
!!LO:PB:g=original
=227	=227	=227	=227	=227
8DD'/L	.	(16ddd\LL	.	.
.	.	16aa\	.	.
8AA'/	.	16ff#\	.	.
.	.	16ee\JJ	.	.
8F#'/	.	16ff#\LL	.	.
.	.	16ee\	.	.
8AA'/J	.	16dd\	.	.
.	.	16b\JJ	.	.
=228	=228	=228	=228	=228
8DD/L	.	16dd/LL	.	.
.	.	16a/	.	.
8AA/	.	16f#/	.	.
.	.	16e/JJ	.	.
8D/	.	16f#/LL	.	.
.	.	16e/	.	.
8AA/J	.	16d/	.	.
.	.	16B/JJ	.	.
*	*	*clefF4	*	*
=229	=229	=229	=229	=229
8DD/L	.	16d\LL	.	.
.	.	16A\	.	.
8AA/	.	16F#\	.	.
.	.	16E\JJ	.	.
8DD/	.	16F#\LL	.	.
.	.	16E\	.	.
8DD/J	.	16D\	.	.
.	.	16AA\JJ)	.	.
=230	=230	=230	=230	=230
!	!	!	!	!LO:DY:b=2:rj
2DDD;/	.	2r;	.	sf
*	*	*clefG2	*	*
!!LO:LB:g=original
=231||	=231||	=231||	=231||	=231||
*k[b-e-]	*	*k[b-e-]	*	*
*B-:	*	*B-:	*	*
*	*	*^	*	*
*ped	*	*	*	*	*
4BB-\ 4F	.	8b-'/L	(16b-\LL	.	p
.	.	.	16f\	.	.
.	.	8dd'/J	16g\	.	.
.	.	.	16f\JJ	.	.
*clefG2	*	*	*	*	*
4ff^\	.	4ryy	16g\LL	.	.
.	.	.	16f\	.	.
.	.	.	16g\	.	.
.	.	.	16f\JJ)	.	.
=232	=232	=232	=232	=232	=232
4r	.	8b-'/L	(16b-\LL	.	.
.	.	.	16f\	.	.
.	.	8dd'/J	16g\	.	.
.	.	.	16f\JJ	.	.
4ff^\	.	4ryy	16g\LL	.	.
.	.	.	16f\	.	.
.	.	.	16g\	.	.
*Xped	*	*	*	*	*
.	.	.	16f\JJ)	.	.
*clefF4	*	*	*	*	*
=233	=233	=233	=233	=233	=233
8E-\	.	(16gg/LL	8gg\	.	.
.	.	16b-/	.	.	.
8r	.	16cc/ 16dd	8ryy	.	.
.	.	16b-/JJ)	.	.	.
4r	.	16ryy	16a\ 16bn	.	.
.	.	(>16cc/LL	16ryy	.	.
.	.	16ee-/	8ryy	.	.
.	.	16gg/JJ)	.	.	.
=234	=234	=234	=234	=234	=234
8D\	.	(>16ff/LL	4ryy	.	.
.	.	16b-X/	.	.	.
8r	.	16cc/ 16dd	.	.	.
.	.	16b-/JJ)	.	.	.
4r	.	16ryy	16g\ 16a	.	.
.	.	(>16b-/LL	16ryy	.	.
.	.	16dd/	8ryy	.	.
.	.	16ff/JJ)	.	.	.
!!LO:LB:g=original
=235	=235	=235	=235	=235	=235
8g'\L	1	8ee-/	(16ee-\LL	.	.
.	.	.	16b-\	.	.
8c'\J	3	8ryy	16cc\	.	.
.	.	.	16b-\JJ)	.	.
8c'\L	2	8ee-/	(16ee-\LL	.	.
.	.	.	16g\	.	.
8F'\J	5	8ryy	16a\	.	.
.	.	.	16g\JJ)	.	.
=236	=236	=236	=236	=236	=236
!	!	!	!	!	!LO:HP:t=poco a poco cresc._:ext=s:ext=ud
8F'\L	1	8dd/	(16dd\LL	.	<
.	.	.	16a\	.	.
8BB-'\J	3	8ryy	16b-\	.	.
.	.	.	16a\JJ)	.	.
8BB-'/L	2	(16dd/LL	8dd\	.	.
.	.	16f/	.	.	.
8EE-'/J	5	16g/	8ryy	.	.
.	.	16f/JJ)	.	.	.
=237	=237	=237	=237	=237	=237
8e-\L	.	(16cc/LL	4cc\	.	.
.	.	16g/	.	.	.
8A\J	.	16a/	.	.	.
.	.	16g/JJ	.	.	.
8A\L	.	16dd/LL	4dd\	.	.
.	.	16f#X/	.	.	.
8D\J	.	16g/	.	.	.
.	.	16f#/JJ	.	.	.
=238	=238	=238	=238	=238	=238
8D/L	.	16b-/LL	4b-\	.	.
.	.	16fn/	.	.	.
8GG/J	.	16g/	.	.	.
.	.	16f/JJ	.	.	.
8GG/L	.	16b-/LL	4b-\	.	.
.	.	16en/	.	.	.
8CC/J	.	16f/	.	.	.
.	.	16e/JJ)	.	.	.
!!LO:LB:g=original
=239	=239	=239	=239	=239	=239
8c\L	.	(16a/LL	4a\	.	.
.	.	16en/	.	.	.
8F\J	.	16f/	.	.	.
.	.	16e/JJ	.	.	.
8F\L	.	16b-/LL	4b-\	.	.
.	.	16d/	.	.	.
8BB-\J	.	16e/	.	.	.
.	.	16d/JJ	.	.	.
=240	=240	=240	=240	=240	=240
8BB-/L	.	16g/LL	4g\	.	.
.	.	16d/	.	.	.
8EEn/J	.	16en/	.	.	.
.	.	16d/JJ	.	.	.
8EE/L	.	16a/LL	4a\	.	.
.	.	16c#X/	.	.	.
8AAA/J	.	16d/	.	.	.
.	.	16c#/JJ)	.	.	[
=241	=241	=241	=241	=241	=241
*ped	*	*	*	*	*
4DD/ 4AA	.	8d/L	(16d\LL	.	f
.	.	.	16A\	.	.
.	.	8f/J	16B-\	.	.
.	.	.	16A\JJ	.	.
*clefG2	*	*	*	*	*
4a^/	.	4ryy	16B-\LL	.	.
.	.	.	16A\	.	.
.	.	.	16B-\	.	.
.	.	.	16A\JJ)	.	.
=242	=242	=242	=242	=242	=242
4r	.	8d/L	(16d\LL	.	.
.	.	.	16A\	.	.
.	.	8f/J	16B-\	.	.
.	.	.	16A\JJ	.	.
4a^/	.	4ryy	16B-\LL	.	.
.	.	.	16A\	.	.
.	.	.	16B-\	.	.
*Xped	*	*	*	*	*
.	.	.	16A\JJ)	.	.
*clefF4	*	*	*	*	*
!!LO:LB:g=original
=243	=243	=243	=243	=243	=243
8d\L	.	4b-\	(>16b-/LL	.	.
.	.	.	16f/	.	.
8G\J	.	.	16g/	.	.
.	.	.	16f/JJ	.	.
8G\L	.	4b-\	16b-/LL	.	.
.	.	.	16d/	.	.
8C\J	.	.	16en/	.	.
.	.	.	16d/JJ	.	.
=244	=244	=244	=244	=244	=244
8C/L	.	4a\	16a/LL	.	.
.	.	.	16en/	.	.
8FF/J	.	.	16f/	.	.
.	.	.	16e/JJ	.	.
8FF/L	.	4a\	16a/LL	.	.
.	.	.	16c/	.	.
8BBB-/J	.	.	16d/	.	.
.	.	.	16c/JJ	.	.
=245	=245	=245	=245	=245	=245
8B-\L	.	4g\	16g/LL	.	.
.	.	.	16d/	.	.
8En\J	.	.	16en/	.	.
.	.	.	16d/JJ	.	.
8E/L	.	4a\	16a/LL	.	.
.	.	.	16c#X/	.	.
8AA/J	.	.	16d/	.	.
.	.	.	16c#/JJ	.	.
=246	=246	=246	=246	=246	=246
8A\L	.	4f\	16f/LL	.	.
.	.	.	16cn/	.	>
8D\J	.	.	16d/	.	.
.	.	.	16c/JJ	.	.
8A\L	.	4f\	16f/LL	.	.
.	.	.	16c/	.	.
8D#X\J	.	.	16dn/	.	]
.	.	.	16c/JJ)	.	.
*	*	*v	*v	*	*
!!LO:LB:g=original
=247||	=247||	=247||	=247||	=247||
*k[f#]	*	*k[f#]	*	*
*G:	*	*G:	*	*
*^	*	*^	*	*
4G#X/	(8G#\L	.	4e\	(>16e/LL	.	p
.	.	.	.	16B/	.	<
.	8E\J	.	.	16c/	.	.
.	.	.	.	16B/JJ	.	.
4A/	8A\L	.	4fn\	16f/LL	.	.
.	.	.	.	16c/	.	.
.	8D\J	.	.	16d/	.	.
.	.	.	.	16c/JJ	.	[
=248	=248	=248	=248	=248	=248	=248
4B-X/	8B-\L	.	4g\	16g/LL	.	>
.	.	.	.	16d/	.	.
.	8C\J	.	.	16e/	.	.
.	.	.	.	16d/JJ	.	.
4A/	8A\L	.	4fn\	16f/LL	.	]
.	.	.	.	16c/	.	.
.	8D\J)	.	.	16d/	.	.
.	.	.	.	16c/JJ	.	.
=249	=249	=249	=249	=249	=249	=249
4G#X/	(8G#\L	.	4e\	16e/LL	.	.
.	.	.	.	16B/	.	<
.	8E\J	.	.	16c/	.	.
.	.	.	.	16B/JJ	.	.
4A/	8A\L	.	4fn\	16f/LL	.	.
.	.	.	.	16c/	.	.
.	8D\J	.	.	16d/	.	[
.	.	.	.	16c/JJ	.	.
=250	=250	=250	=250	=250	=250	=250
4B-X/	8B-\L	.	4g\	16g/LL	.	.
.	.	.	.	16d/	.	>
.	8C\J	.	.	16e/	.	.
.	.	.	.	16d/JJ	.	.
4A/	8A\L	.	4fn\	16f/LL	.	.
.	.	.	.	16c/	.	]
.	8D\J)	.	.	16d/	.	.
.	.	.	.	16c/JJ)	.	.
!!LO:PB:g=original
=251	=251	=251	=251	=251	=251	=251
4G#X/	(8G#\L	.	(16e/LL	4e\	.	.
.	.	.	16B/	.	.	.
.	8E\J	.	16c/	.	.	.
.	.	.	16B/JJ	.	.	.
4A/	8A\L	.	16fn/LL	4f\	.	<
.	.	.	16c/	.	.	.
.	8D\J	.	16d/	.	.	.
.	.	.	16c/JJ	.	.	[[
=252	=252	=252	=252	=252	=252	=252
4B-X/	8B-\L	.	16g/LL	4g\	.	.
.	.	.	16d/	.	.	.
.	8C\J	.	16e/	.	.	.
.	.	.	16d/JJ	.	.	.
4E/	8E\L	.	16g#X/LL	4g#\	.	.
.	.	.	16c/	.	.	.
.	8BB-X\J)	.	16d/	.	.	.
.	.	.	16c/JJ)	.	.	.
=253	=253	=253	=253	=253	=253	=253
4E/	(8E\L	.	(16a/LL	4a\	.	mf
.	.	.	16c#X/	.	.	.
.	8AA\J	.	16e/	.	.	<
.	.	.	16A/JJ	.	.	.
4Fn/	8F\L	.	16b-X/LL	4b-\	.	.
.	.	.	16d/	.	.	.
.	8AA\J	.	16e/	.	.	.
.	.	.	16B-X/JJ	.	.	[
=254	=254	=254	=254	=254	=254	=254
4G/	8G\L	.	16cc/LL	4cc\	.	.
.	.	.	16e-X/	.	.	>
.	8FFn\J	.	16a/	.	.	.
.	.	.	16c/JJ	.	.	.
4Fn/	8F\L	.	16b-X/LL	4b-\	.	.
.	.	.	16d/	.	.	.
.	8GG\J)	.	16e-/	.	.	.
.	.	.	16B-X/JJ	.	.	]
!!LO:LB:g=original
=255	=255	=255	=255	=255	=255	=255
4E/	(8E\L	.	16a/LL	4a\	.	.
.	.	.	16c#X/	.	.	<
.	8AA\J	.	16en/	.	.	.
.	.	.	16A/JJ	.	.	.
4Fn/	8F\L	.	16b-X/LL	4b-\	.	.
.	.	.	16d/	.	.	.
.	8GG\J	.	16e/	.	.	.
.	.	.	16B-X/JJ	.	.	[[
=256	=256	=256	=256	=256	=256	=256
4G/	8G\L	.	16cc/LL	4cc\	.	.
.	.	.	16e-X/	.	.	.
.	8FFn\J	.	16a/	.	.	>
.	.	.	16c/JJ	.	.	.
4Fn/	8F\L	.	16b-X/LL	4b-\	.	.
.	.	.	16d/	.	.	.
.	8GG\J)	.	16e-/	.	.	.
.	.	.	16B-X/JJ)	.	.	]
=257	=257	=257	=257	=257	=257	=257
4E/	(8E\L	.	(16a/LL	4a\	.	<
.	.	.	16c#X/	.	.	.
.	8AA\J	.	16en/	.	.	.
.	.	.	16A/JJ	.	.	.
4Fn/	8F\L	.	16b-X/LL	4b-\	.	.
.	.	.	16d/	.	.	.
.	8GG\J	.	16e/	.	.	.
.	.	.	16B-X/JJ	.	.	[
=258	=258	=258	=258	=258	=258	=258
4G/	8G\L	.	16cc/LL	4cc\	.	.
.	.	.	16e-X/	.	.	.
.	8FFn\J	.	16a/	.	.	.
.	.	.	16c/JJ	.	.	.
4A/	8A\L	.	16cc#X/LL	4cc#\	.	.
.	.	.	16g/	.	.	.
.	8Fn\J)	.	16a/	.	.	.
.	.	.	16e-/JJ	.	.	.
!!LO:LB:g=original
=259	=259	=259	=259	=259	=259	=259
4B-X/	(8B-\L	.	16dd/LL	4dd\	.	.
!	!	!	!	!	!	!LO:HP:t=sempre più cresc._:ext=s:ext=ud
.	.	.	16a-X/	.	.	<
.	8BB-X\J	.	16b-X/	.	.	.
.	.	.	16fn/JJ	.	.	.
4c/	8c\L	.	16ee-X/LL	4ee-\	.	.
.	.	.	16a-/	.	.	.
.	8BB-\J	.	16b-/	.	.	.
.	.	.	16f/JJ	.	.	.
=260	=260	=260	=260	=260	=260	=260
4d/	8d\L	.	16ffn/LL	4ff\	.	.
.	.	.	16a-X/	.	.	.
.	8BB-X\J	.	16b-X/	.	.	.
.	.	.	16fn/JJ	.	.	.
4c-X/	8c-\L	.	16ee-X/LL	4ee-\	.	.
.	.	.	16a-/	.	.	.
.	8BB-\J)	.	16b-/	.	.	.
.	.	.	16f/JJ)	.	.	.
=261	=261	=261	=261	=261	=261	=261
4B-X/	(8B-\L	.	(16dd/LL	4dd\	.	.
.	.	.	16a-X/	.	.	.
.	8BB-X\J	.	16b-X/	.	.	.
.	.	.	16fn/JJ	.	.	.
4c/	8cn\L	.	16ee-X/LL	4ee-\	.	.
.	.	.	16g/	.	.	.
.	8BB-\J	.	16an/	.	.	.
.	.	.	16e-X/JJ	.	.	.
=262	=262	=262	=262	=262	=262	=262
4c/	8c\L	.	16ffn/LL	4ff\	.	.
.	.	.	16a/	.	.	.
.	8C\J	.	16cc/	.	.	.
.	.	.	16fn/JJ	.	.	.
4c#X/	8c#\L	.	16ee-X/LL	4ee-\	.	.
.	.	.	16a/	.	.	.
.	8AA\J)	.	16b-X/	.	.	.
.	.	.	16g/JJ)	.	.	[
!!LO:LB:g=original
=263	=263	=263	=263	=263	=263	=263
4A/	8A\L	.	(>16dd/LL	4dd\	.	.
.	.	.	16f#X/	.	.	.
.	8D\J	.	16a/	.	.	.
.	.	.	16d/JJ	.	.	.
4e-X/	8B-X\L 8e-	.	16ee-X/LL	4ee-\	.	.
.	.	.	16a/	.	.	.
.	8D\J	.	16b-X/	.	.	.
.	.	.	16g/JJ	.	.	.
*v	*v	*	*	*	*	*
=264	=264	=264	=264	=264	=264
8Bn\L 8g#X	.	16een/LL	4ee\	.	.
.	.	16a#X/	.	.	.
8D\J	.	16bn/	.	.	.
.	.	16e/JJ	.	.	<
8c\L 8fn	.	16ffn/LL	4ff\	.	.
.	.	16b/	.	.	.
8D\J	.	16cc/	.	.	.
.	.	16an/JJ	.	.	.
=265	=265	=265	=265	=265	=265
8A#X\L 8f#X	.	16ff#X/LL	4ff#\	.	.
.	.	16b#X/	.	.	.
8D\J	.	16cc#X/	.	.	.
.	.	16a#X/JJ	.	.	.
8B\L 8d	.	4gg/	16gg\LL	.	.
.	.	.	16cc#\	.	.
8D\J	.	.	16dd\	.	.
.	.	.	16g\JJ	.	[
!!LO:LB:g=original
=266	=266	=266	=266	=266	=266
8B#X\L 8d#X	.	4gg#X/	16gg#\LL	.	.
.	.	.	16cc##X\	.	.
8Dn\J	.	.	16dd#X\	.	.
.	.	.	16g#X\JJ	.	.
8c#X\L 8e	.	4aa/	16aa\LL	.	.
.	.	.	16dd#\	.	.
8D\J	.	.	16ee\	.	.
.	.	.	16a\JJ)	.	.
*clefG2	*	*	*	*	*
=267	=267	=267	=267	=267	=267
*	*	*8va	*	*	*
8a/L 8ff#	.	(16ddd/LL	4dddn\	.	.
.	.	16gg#X/	.	.	.
8d/J	.	16aa/	.	.	.
.	.	16dd/JJ	.	.	.
8b-X/L 8ee-X	.	16eee-X/LL	4eee-\	.	.
.	.	16aa/	.	.	.
8d/J	.	16bb-X/	.	.	.
.	.	16ggn/JJ	.	.	.
=268	=268	=268	=268	=268	=268
8bn/L 8gg#X	.	16eeen/LL	4eee\	.	.
.	.	16aa#X/	.	.	.
8d/J	.	16bb/	.	.	.
.	.	16ee/JJ	.	.	.
8cc/L 8ffn	.	16fffn/LL	4fff\	.	.
.	.	16bb/	.	.	.
8d/J	.	16ccc/	.	.	.
.	.	16aan/JJ	.	.	.
=269	=269	=269	=269	=269	=269
8a#X/L 8ff#X	.	16fff#X/LL	4fff#\	.	.
.	.	16bb#X/	.	.	.
8d/J	.	16ccc#X/	.	.	.
.	.	16aa#X/JJ	.	.	.
8b/L 8dd	.	16ggg/LL	4ggg\	.	.
.	.	16ccc#/	.	.	.
8d/J	.	16ddd/	.	.	.
.	.	16gg/JJ	.	.	.
!!LO:LB:g=original
=270	=270	=270	=270	=270	=270
8b#X/L 8dd#X	.	16ggg#X/LL	4ggg#\	.	.
.	.	16ccc##X/	.	.	.
8dn/J	.	16ddd#X/	.	.	.
.	.	16gg#X/JJ	.	.	.
8cc#X/L 8ee	.	16aaa/LL	4aaa\	.	.
.	.	16ddd#/	.	.	.
8d/J	.	16eee/	.	.	.
.	.	16aa/JJ)	.	.	.
=271	=271	=271	=271	=271	=271
8dddn'\L	.	4dddd/	(16ddddn\LL	.	.
.	.	.	16fff#\	.	.
8dd'\J 8aa	.	.	16aaa\	.	.
.	.	.	16dddn\JJ)	.	.
*^	*	*	*	*	*
4ee-X^/	8ee-\L	.	4eeee-X/	(16eeee-\LL	.	.
.	.	.	.	16aaa\	.	.
.	8d\J 8a	.	.	16cccc\	.	.
.	.	.	.	16gggn\JJ)	.	.
=272	=272	=272	=272	=272	=272	=272
8ddd'\L	4ryy	.	4dddd/	(16dddd\LL	.	.
.	.	.	.	16fff#\	.	.
8dd'\J 8aa	.	.	.	16aaa\	.	.
.	.	.	.	16ddd\JJ)	.	.
4ee-X^/	8ee-\L	.	4eeee-X/	(16eeee-\LL	.	.
.	.	.	.	16aaa\	.	.
.	8d\J 8a	.	.	16cccc\	.	.
.	.	.	.	16ggg\JJ)	.	.
=273	=273	=273	=273	=273	=273	=273
8ddd\	4ryy	.	4dddd/	(16dddd\LL	.	.
.	.	.	.	16fff#\	.	.
8r	.	.	.	16aaa\	.	.
.	.	.	.	16ddd\JJ)	.	.
*	*	*	*	*X8va	*	*
4eee^/	(16eeen\LL	.	4r	4ryy	.	.
.	16ff#\	.	.	.	.	.
.	16ccc\	.	.	.	.	.
.	16dd\JJ)	.	.	.	.	.
!!LO:PB:g=original
=274	=274	=274	=274	=274	=274	=274
4ryy	4ryy	.	4ddd/	(16ddd\LL	.	.
.	.	.	.	16ff#\	.	.
.	.	.	.	16aa\	.	.
.	.	.	.	16dd\JJ)	.	.
4ee^/	(16ee\LL	.	4r	4ryy	.	.
.	16f#\	.	.	.	.	.
.	16cc\	.	.	.	.	.
.	16d\JJ)	.	.	.	.	.
=275	=275	=275	=275	=275	=275	=275
4r	4ryy	.	4dd/	(16dd\LL	.	.
.	.	.	.	16f#\	.	.
.	.	.	.	16a\	.	.
.	.	.	.	16d\JJ)	.	.
*clefF4	*	*	*	*	*	*
!	!	!	!LO:TX:a:i:t=poco slarg.	!	!	!
4e^/	(16e\LL	.	4r	4ryy	.	.
.	16F#\	.	.	.	.	.
.	16c\	.	.	.	.	.
.	16D\JJ)	.	.	.	.	.
*v	*v	*	*	*	*	*
*	*	*v	*v	*	*
*	*	*clefF4	*	*
=276	=276	=276	=276	=276
*	*	*^	*	*
*	*	*	*^	*	*
*	*	*	*	*^	*	*
4r	.	[4d^/	16d\LL	16ryy	8ryy	.	.
!	!	!	!LO:N:vis=16.	!	!	!	!
.	.	.	16F#\	[8.F#/	.	.	.
.	.	.	16c\	.	[>8c/	.	.
.	.	.	[16D\JJ	.	.	.	.
!	!	!LO:TX:a:i:t=poco rit.	!	!	!	!	!
4DD^>/ 4AA	.	4D\] 4F#] 4c] 4d]	4ryy	4ryy	4ryy	.	.
*	*	*	*v	*v	*v	*	*
=277	=277	=277	=277	=277	=277
*ped	*	*	*	*	*
!	!	!LO:TX:a:B:t=Tempo I.	!	!	!
4GGG/ 4GG	.	8G^/L	(16G\LL	.	ff
!	!	!	!LO:TX:b:i:t=con fuoco	!	!
.	.	.	16D\	.	.
.	.	8B^/J	16E\	.	.
.	.	.	16D\JJ	.	.
*clefG2	*	*	*	*	*
4d^/ 4g 4b 4dd	.	4ryy	16E\LL	.	.
.	.	.	16D\	.	.
.	.	.	16E\	.	.
.	.	.	16D\JJ)	.	.
!!LO:LB:g=original
=278	=278	=278	=278	=278	=278
4r	.	8G^/L	(16G\LL	.	.
.	.	.	16D\	.	.
.	.	8B^/J	16E\	.	.
.	.	.	16D\JJ	.	.
4d^/ 4g 4b 4dd	.	4ryy	16E\LL	.	.
.	.	.	16D\	.	.
.	.	.	16E\	.	.
*Xped	*	*	*	*	*
.	.	.	16D\JJ)	.	.
*clefF4	*	*	*	*	*
=279	=279	=279	=279	=279	=279
8CC/	.	4e/	(16e\LL	.	.
.	.	.	16B\	.	.
8ryy	.	.	16G\	.	.
.	.	.	16E\JJ)	.	.
!	!	!LO:TX:t=P:problem=mixed beam	!	!	!
4ryy	.	4ryy	(16F#</LL	.	.
.	.	.	16A\	.	.
.	.	.	16c\	.	.
.	.	.	16e\JJ)	.	.
=280	=280	=280	=280	=280	=280
8BBB/	.	4d/	(16d\LL	.	.
.	.	.	16A\	.	.
8ryy	.	.	16F#\	.	.
.	.	.	16D\JJ)	.	.
!	!	!LO:TX:t=P:problem=mixed beam	!	!	!
4ryy	.	4ryy	(16E</LL	.	.
.	.	.	16G\	.	.
.	.	.	16B\	.	.
.	.	.	16d\JJ)	.	.
=281	=281	=281	=281	=281	=281
8AA/	.	8c/	(16c\LL	.	.
.	.	.	16E\	.	.
8r	.	8ryy	16G\	.	.
.	.	.	16E\JJ)	.	.
8DD/	.	8c/	(16c\LL	.	.
.	.	.	16E\	.	.
8r	.	8ryy	16F#\	.	.
.	.	.	16E\JJ)	.	.
*	*	*v	*v	*	*
!!LO:LB:g=original
=282	=282	=282	=282	=282
8GG/ 8D	.	(16B\LL	.	.
.	.	16F#\	.	.
8r	.	16G\	.	.
.	.	16A\JJ	.	.
4r	.	16B\LL	.	.
.	.	16A\	.	.
.	.	16B\	.	.
.	.	16d\JJ)	.	.
*	*	*clefG2	*	*
=283	=283	=283	=283	=283
*	*	*^	*	*
8EE/ 8E	.	(16g/LL	8g\	.	.
.	.	16B/	.	.	.
8r	.	16d/	8ryy	.	.
.	.	16B/JJ)	.	.	.
8AA/	.	(16g/LL	8g\	.	.
.	.	16B/	.	.	.
8r	.	16c#X/	8ryy	.	.
.	.	16B/JJ)	.	.	.
*	*	*v	*v	*	*
=284	=284	=284	=284	=284
8DD:/ 8AA: 8F#:	.	(16f#/LL	.	.
.	.	16c#X/	.	.
8r	.	16d/	.	.
.	.	16e/JJ	.	.
4r	.	16f#/LL	.	.
.	.	16e/	.	.
.	.	16f#/	.	.
.	.	16a/JJ)	.	.
=285	=285	=285	=285	=285
*	*	*^	*	*
*ped	*	*	*	*	*
8GG:\ 8D: 8B:	.	8g/L	(16g\LL	.	.
.	.	.	16d\	.	.
8r	.	8b/J	16e\	.	.
.	.	.	16d\JJ	.	.
*clefG2	*	*	*	*	*
4dd^\	.	4ryy	16e\LL	.	.
.	.	.	16d\	.	.
.	.	.	16e\	.	.
.	.	.	16d\JJ)	.	.
!!LO:LB:g=original
=286	=286	=286	=286	=286	=286
4r	.	8g/L	(16g\LL	.	.
.	.	.	16d\	.	.
.	.	8b/J	16e\	.	.
.	.	.	16d\JJ	.	.
4dd^\	.	4r	16e\LL	.	.
.	.	.	16d\	.	.
.	.	.	16e\	.	.
*Xped	*	*	*	*	*
.	.	.	16d\JJ)	.	.
*	*	*v	*v	*	*
*clefF4	*	*	*	*
=287	=287	=287	=287	=287
8C/	.	(>16ee/LL	.	.
.	.	16g/	.	.
8r	.	16a/ 16b	.	.
.	.	16g/JJ	.	.
8f#'\L	.	16g#X/LL	.	.
.	.	16a/	.	.
8A'\J	.	16cc/	.	.
.	.	16ee/JJ)	.	.
=288	=288	=288	=288	=288
8BB/	.	(>16dd/LL	.	.
.	.	16f#/	.	.
8r	.	16gn/ 16a	.	.
.	.	16f#/JJ	.	.
8e'\L	.	16g/LL	.	.
.	.	16a/	.	.
8G'\J	.	16b/	.	.
.	.	16dd/JJ)	.	.
=289	=289	=289	=289	=289
*	*	*^	*	*
8AA/	.	(16cc/LL	8cc\	.	.
.	.	16e/	.	.	.
8r	.	16g/	8ryy	.	.
.	.	16e/JJ)	.	.	.
8D\ 8A	.	(16cc/LL	8cc\	.	.
.	.	16e/	.	.	.
8r	.	16g/	8ryy	.	.
.	.	16e/JJ)	.	.	.
!!LO:LB:g=original
=290	=290	=290	=290	=290	=290
8GG:\ 8D: 8B:	.	(16b/LL	8b\	.	.
.	.	16d/	.	.	.
8r	.	16e/	8ryy	.	.
.	.	16f#/JJ	.	.	.
4r	.	16g/LL	4ryy	.	.
.	.	16a/	.	.	.
.	.	16b/	.	.	.
.	.	16cc/JJ	.	.	.
=291	=291	=291	=291	=291	=291
8B\	.	16dd/LL	8dd\	.	.
.	.	16fn/	.	.	.
8r	.	16a/	8ryy	.	.
.	.	16f/JJ)	.	.	.
8E\	.	(16dd/LL	8dd\	.	.
.	.	16f/	.	.	.
8r	.	16g#X/	8ryy	.	.
.	.	16f/JJ)	.	.	.
*	*	*v	*v	*	*
=292	=292	=292	=292	=292
8AA:\ 8E: 8c:	.	(16cc/LL	.	.
.	.	16g#X/	.	.
8r	.	16a/	.	.
.	.	16b/JJ	.	.
4r	.	16cc\LL	.	.
.	.	16ee\	.	.
.	.	16gg#X\	.	.
.	.	16aa\JJ)	.	.
=293	=293	=293	=293	=293
*^	*	*^	*	*
4ryy	4ryy	.	4ccc^/	(16ccc\LL	.	.
.	.	.	.	16aa\	.	.
.	.	.	.	16ff#\	.	.
.	.	.	.	16ee\JJ)	.	.
*clefG2	*	*	*	*	*	*
(16dd#X/LL	4dd#^>\	.	4ryy	4ryy	.	.
16a/	.	.	.	.	.	.
16f#/	.	.	.	.	.	.
16B/JJ)	.	.	.	.	.	.
*v	*v	*	*	*	*	*
*clefF4	*	*	*	*	*
!!LO:LB:g=original
=294	=294	=294	=294	=294	=294
!	!	!LO:TX:t=P:problem=mixed beam	!	!	!
4ryy	.	4e^/	N(<16e\LL	.	.
.	.	.	16G</	.	.
.	.	.	16B</	.	.
.	.	.	16F#</JJ	.	.
16E\LL	.	4ryy	4ryy	.	.
16AA#X\	.	.	.	.	.
16BB\	.	.	.	.	.
16EE\JJN)	.	.	.	.	.
=295	=295	=295	=295	=295	=295
*^	*	*	*	*	*
4ryy	4ryy	.	(16b-X/LL	4b-^>\	.	.
.	.	.	16g/	.	.	.
.	.	.	16e/	.	.	.
.	.	.	16d/JJ)	.	.	.
4c#X^/	(16c#\LL	.	4ryy	4ryy	.	.
.	16G\	.	.	.	.	.
.	16E\	.	.	.	.	.
.	16AAn\JJ)	.	.	.	.	.
*v	*v	*	*	*	*	*
=296	=296	=296	=296	=296	=296
!	!	!LO:TX:t=P:problem=mixed beam	!	!	!
4ryy	.	4d/	N(<16d\LL	.	.
.	.	.	16Fn</	.	.
.	.	.	16A</	.	.
.	.	.	16E</JJ	.	.
16D\LL	.	4ryy	4ryy	.	.
16GG#X\	.	.	.	.	.
16AA\	.	.	.	.	.
16DD\JJN)	.	.	.	.	.
=297	=297	=297	=297	=297	=297
4ryy	.	16dd/LL	N(<4dd\	.	mf
.	.	16fn/	.	.	.
.	.	16a/	.	.	.
.	.	16e/JJ	.	.	.
!	!	!	!	!	!LO:HP:a
16d\LL	.	4ryy	4ryy	.	<
16G#X\	.	.	.	.	.
16A\	.	.	.	.	.
16D\JJN)>	.	.	.	.	.
!!LO:PB:g=original
=298	=298	=298	=298	=298	=298
4ryy	.	4ffn/	N(<16ff\LL	.	.
.	.	.	16cc#X\	.	.
.	.	.	16dd\	.	.
.	.	.	16a\JJ	.	.
16fn\LL	.	4ryy	4ryy	.	.
16c#X\	.	.	.	.	.
16d\	.	.	.	.	.
16cn\JJN)>	.	.	.	.	.
=299	=299	=299	=299	=299	=299
4ryy	.	4aa/	N(<16aa\LL	.	[
.	.	.	16ee\	.	.
.	.	.	16ffn\	.	.
.	.	.	16dd\JJ	.	.
16a\LL	.	4ryy	4ryy	.	.
16e\	.	.	.	.	.
16fn\	.	.	.	.	.
16B\JJN)>	.	.	.	.	.
=300	=300	=300	=300	=300	=300
8r	.	4gg#X/	(<16gg#\LL	.	.
.	.	.	16ffn\	.	.
8g#X'\L	.	.	16ee\	.	.
!	!	!	!	!	!LO:HP:a
.	.	.	16dd\JJ	.	>
8d'\	.	4ryy	16cc\LL	.	.
.	.	.	16b\	.	.
8E'\J	.	.	16a\	.	]
.	.	.	16g#X\JJ)	.	.
=301	=301	=301	=301	=301	=301
4ryy	.	N(<16a/LL	4a\	.	.
.	.	16c/	.	.	.
.	.	16e/	.	.	.
.	.	16B/JJ	.	.	.
!	!	!	!	!	!LO:HP:a
16A\LL	.	4ryy	4ryy	.	<
16D#X\	.	.	.	.	.
16E\	.	.	.	.	.
16AA\JJN)>	.	.	.	.	.
!!LO:LB:g=original
=302	=302	=302	=302	=302	=302
4ryy	.	N(<16cc/LL	4cc\	.	.
.	.	16g#X/	.	.	.
.	.	16a/	.	.	.
.	.	16e/JJ	.	.	.
16c\LL	.	4ryy	4ryy	.	[
16G#X\	.	.	.	.	.
16A\	.	.	.	.	.
16Gn\JJN)>	.	.	.	.	.
=303	=303	=303	=303	=303	=303
4ryy	.	4ee/	N(<16ee\LL	.	.
.	.	.	16b\	.	.
.	.	.	16cc\	.	.
.	.	.	16a\JJ	.	.
16e\LL	.	4ryy	4ryy	.	.
16B\	.	.	.	.	.
16c\	.	.	.	.	.
16F#\JJN)>	.	.	.	.	.
=304	=304	=304	=304	=304	=304
8r	.	8dd#X/	(<16dd#\LL	.	.
.	.	.	16cc\	.	.
8d#X'\L	.	8ryy	16b\	.	.
.	.	.	16a\JJ	.	>
8A'\	.	4ryy	16g\LL	.	.
.	.	.	16f#\	.	.
8BB'\J	.	.	16e\	.	.
.	.	.	16d#X\JJ)	.	]
=305	=305	=305	=305	=305	=305
*ped	*	*	*	*	*
8E\ 8B	.	8ee/L	(16ee\LL	.	p
.	.	.	16b\	.	.
8r	.	8gg/J	16ccn\	.	.
.	.	.	16b\JJ	.	.
*clefG2	*	*	*	*	*
4bb^\	.	4ryy	16cc\LL	.	.
.	.	.	16b\	.	.
.	.	.	16cc\	.	.
.	.	.	16b\JJ)	.	.
!!LO:LB:g=original
=306	=306	=306	=306	=306	=306
4r	.	8ee/L	(16ee\LL	.	.
.	.	.	16b\	.	.
.	.	8gg/J	16cc\	.	.
.	.	.	16b\JJ	.	.
4bb^\	.	4ryy	16cc\LL	.	.
.	.	.	16b\	.	.
.	.	.	16cc\	.	.
*Xped	*	*	*	*	*
.	.	.	16b\JJ)	.	.
*clefF4	*	*	*	*	*
=307	=307	=307	=307	=307	=307
8AA'\L	.	8gg/	(16gg\LL	.	<
.	.	.	16ee\	.	.
8E'\	.	8ryy	16ff#\	.	.
.	.	.	16ee\JJ)	.	.
8B'\J	.	8bb/	(16bb\LL	.	.
.	.	.	16ee\	.	.
8r	.	8ryy	16ff#\	.	.
.	.	.	16ee\JJ)	.	[
=308	=308	=308	=308	=308	=308
8r	.	8bb#X/	(16bb#\LL	.	.
.	.	.	16ee\	.	.
8g'\L	.	8ryy	16ff#\	.	.
.	.	.	16ee\JJ)	.	.
8e'\	.	8ccc#X/	(16ccc#\LL	.	.
.	.	.	16ee\	.	.
8A'\J	.	8ryy	16ff#\	.	.
.	.	.	16ee\JJ)	.	.
*clefG2	*	*	*	*	*
=309	=309	=309	=309	=309	=309
*ped	*	*	*8va	*	*
4d/ 4a	.	8ddd/L	(16ddd\LL	.	.
.	.	.	16aa\	.	.
.	.	8fff#/J	16bb\	.	.
.	.	.	16aa\JJ	.	.
*8va	*	*	*	*	*
4aaa^<\	.	4ryy	16bb\LL	.	.
*X8va	*	*	*	*	*
.	.	.	16aa\	.	.
.	.	.	16bb\	.	.
.	.	.	16aa\JJ)	.	.
!!LO:LB:g=original
=310	=310	=310	=310	=310	=310
4r	.	8ddd/L	(16ddd\LL	.	.
.	.	.	16aa\	.	.
.	.	8fff#/J	16bb\	.	.
.	.	.	16aa\JJ	.	.
*8va	*	*	*	*	*
4aaa^<\	.	4ryy	16bb\LL	.	.
*X8va	*	*	*	*	*
.	.	.	16aa\	.	.
.	.	.	16bb\	.	.
.	.	.	16aa\JJ)	.	.
=311	=311	=311	=311	=311	=311
8G'/L	.	8fffn/	(16fff\LL	.	.
.	.	.	16aa\	.	>
8d'/	.	8ryy	16bb\	.	.
.	.	.	16aa\JJ)	.	.
8a'/J	.	8aaa/	(16aaa\LL	.	.
.	.	.	16ddd\	.	.
8r	.	8ryy	16eee\	.	.
.	.	.	16ddd\JJ)	.	]
=312	=312	=312	=312	=312	=312
8r	.	8aaa#X/	(16aaa#\LL	.	.
.	.	.	16ddd\	.	.
8ffn'\L	.	8ryy	16eee\	.	.
.	.	.	16ddd\JJ)	.	.
8dd'\	.	8bbb/	(16bbb\LL	.	.
.	.	.	16ddd\	.	.
8g'\J	.	8ryy	16eee\	.	.
.	.	.	16ddd\JJ)	.	.
=313	=313	=313	=313	=313	=313
!LO:TX:b:i:t=legg. staccato	!	!	!	!	!LO:DY:t=molto p
8c/L	.	8cccc/	(16cccc\LL	.	p
.	.	.	16eee\	.	.
8e/	.	8ryy	16ggg\	.	.
.	.	.	16eee\JJ)	.	.
8f#X/	.	4ryy	(<16cccc\LL	.	.
.	.	.	16eee\	.	.
8a/J	.	.	16fff#\	.	.
.	.	.	16eee\JJ)	.	.
*	*	*v	*v	*	*
!!LO:LB:g=original
=314	=314	=314	=314	=314
8dd\L	.	(16bbb\LL	.	.
.	.	16ddd\	.	.
8ff#\	.	16fff#\	.	.
.	.	16ddd\JJ)	.	.
8gg\	.	(16bbb\LL	.	.
.	.	16ddd\	.	.
8bb\J	.	16eee\	.	.
.	.	16ddd\JJ)	.	.
=315	=315	=315	=315	=315
!	!	!	!	!LO:HP:t=poco cresc.
8A/L	.	(16aaa\LL	.	<
.	.	16ccc\	.	.
8c/	.	16eee\	.	.
.	.	16ccc\JJ)	.	.
8d/	.	(16aaa\LL	.	.
.	.	16ccc\	.	.
8f#/J	.	16ddd\	.	.
.	.	16ccc\JJ)	.	.
=316	=316	=316	=316	=316
8b\L	.	(16ggg\LL	.	.
.	.	16bb\	.	.
8dd\	.	16ddd\	.	.
.	.	16bb\JJ)	.	.
8ee\	.	(16ggg\LL	.	.
.	.	16bb\	.	.
8gg\J	.	16ccc\	.	.
.	.	16bb\JJ)	.	.
=317	=317	=317	=317	=317
8r	.	(16fff#\LL	.	.
.	.	16aa\	.	.
(8ee\	.	16ccc\	.	.
.	.	16aa\JJ)	.	.
4b\) 4dd#X	.	(16fff#\LL	.	.
.	.	16aa\	.	.
.	.	16bb\	.	.
.	.	16aa\JJ)	.	.
*	*	*X8va	*	*
!!LO:LB:g=original
=318	=318	=318	=318	=318
8r	.	(16eee\LL	.	.
.	.	16gg\	.	>
(8e/ 8ddn	.	16bb\	.	.
.	.	16gg\JJ)	.	.
4a\) 4cc#X	.	(16eee\LL	.	.
.	.	16gg\	.	.
.	.	16aa\	.	.
.	.	16gg\JJ)	.	]
=319	=319	=319	=319	=319
*	*	*^	*	*
8d^/	.	8gg/L	(16gg\LL	.	.
.	.	.	16dd\	.	.
8r	.	8bb/J	16ee\	.	.
.	.	.	16dd\JJ	.	.
4ddd^<\	.	4ryy	16ee\LL	.	.
.	.	.	16dd\	.	.
.	.	.	16ee\	.	.
!	!	!	!	!	!LO:HP:t=poco a poco cresc.:ext=s
.	.	.	16dd\JJ)	.	<
*	*	*v	*v	*	*
=320	=320	=320	=320	=320
8g'/L	.	(<16bb\LL	.	.
.	.	16gg\	.	.
8b'/J	.	16aa\	.	.
.	.	16gg\JJ	.	.
4dd^\	.	16bb\LL	.	.
.	.	16gg\	.	.
.	.	16aa\	.	.
.	.	16gg\JJ)	.	.
=321	=321	=321	=321	=321
*	*	*^	*	*
8d/ 8b	.	8gg#X/L	(16gg#\LL	.	.
.	.	.	16ee\	.	.
8r	.	8bb/J	16ffn\	.	.
.	.	.	16ee\JJ	.	.
4eee^<\	.	4ryy	16ff\LL	.	.
.	.	.	16ee\	.	.
.	.	.	16ff\	.	.
.	.	.	16ee\JJ)	.	.
*	*	*v	*v	*	*
!!LO:PB:g=original
=322	=322	=322	=322	=322
8g#X'/L	.	(16bb\LL	.	.
.	.	16gg#X\	.	.
8b'/J	.	16aa\	.	.
.	.	16gg#\JJ	.	.
4ee~\	.	16bb\LL	.	.
.	.	16gg#\	.	.
.	.	16aa\	.	.
.	.	16gg#\JJ)	.	.
=323	=323	=323	=323	=323
*	*	*^	*	*
8d/ 8a	.	8aa/L	(16aa\LL	.	.
.	.	.	16ee\	.	.
8r	.	8ccc/J	16ffn\	.	.
.	.	.	16ee\JJ	.	.
4eee^<\	.	4ryy	16ff\LL	.	.
.	.	.	16ee\	.	.
.	.	.	16ff\	.	.
.	.	.	16ee\JJ)	.	.
*	*	*v	*v	*	*
=324	=324	=324	=324	=324
8a'\L	.	(16ccc\LL	.	.
.	.	16aa\	.	.
8cc'\J	.	16bb\	.	.
.	.	16aa\JJ	.	.
4ee~\	.	16ccc\LL	.	.
.	.	16aa\	.	.
.	.	16bb\	.	.
.	.	16aa\JJ)	.	.
=325	=325	=325	=325	=325
*	*	*8va	*	*
8d/L 8a	.	(16fff#X\LL	.	.
.	.	16ccc#X\	.	.
8ff#/	.	16ddd\	.	<
.	.	16eee\JJ	.	.
8dd/	.	16fff#\LL	.	.
.	.	16ggg\	.	.
8ccn/J	.	16aaa\	.	.
.	.	16bbb\JJ	.	.
!!LO:LB:g=original
=326	=326	=326	=326	=326
8a/L	.	16ccccn\LL	.	.
.	.	16ggg#X\	.	.
8f#/	.	16aaa\	.	.
.	.	16bbb\JJ	.	[
8d/	.	16cccc\LL	.	.
.	.	16dddd\	.	.
8A/J	.	16eeee\	.	.
.	.	16ffff#\JJ)	.	.
=327	=327	=327	=327	=327
8G/ 8d 8b	.	N(>16ggggn\LL	.	f
.	.	16dddd\	.	.
8r	.	16bbb\	.	.
.	.	16aaa\JJ	.	.
*8va	*	*X8va	*	*
16ggg\LL	.	4ryy	.	.
16ddd\	.	.	.	.
16bb\	.	.	.	.
16aa\JJ	.	.	.	.
*X8va	*	*	*	*
=328	=328	=328	=328	=328
4r	.	16gg\LL	.	.
.	.	16dd\	.	.
.	.	16b\	.	.
.	.	16a\JJ	.	.
16g/LL	.	4ryy	.	.
16d/	.	.	.	.
16B/	.	.	.	.
16G/JJN)	.	.	.	.
=329	=329	=329	=329	=329
*ped	*	*	*	*
NN(>16E/LL	.	4ryy	.	.
16B/	.	.	.	.
16c#X/	.	.	.	.
16e/JJ	.	.	.	.
4r	.	16g\LL	.	.
.	.	16b\	.	.
.	.	16cc#X\	.	.
.	.	16gg\JJNN)	.	.
!!LO:LB:g=original
=330	=330	=330	=330	=330
4bb^\	.	4ryy	.	.
*Xped	*	*	*	*
4d^>/ 4f# 4b	.	4dd^\ 4ff# 4bb 4ddd	.	.
=331	=331	=331	=331	=331
8G/ 8d 8b	.	NNN(>16ggg\LL	.	.
.	.	16ddd\	.	.
8r	.	16bb\	.	.
.	.	16aa\JJ	.	.
16gg\LL	.	4ryy	.	.
16dd\	.	.	.	.
16b\	.	.	.	.
16a\JJ	.	.	.	.
=332	=332	=332	=332	=332
4r	.	16g/LL	.	.
.	.	16d/	.	.
.	.	16B/	.	.
.	.	16A/JJ	.	.
*clefF4	*	*	*	*
16G\LL	.	4ryy	.	.
16D\	.	.	.	.
16BB\	.	.	.	.
16GG\JJNNN)	.	.	.	.
=333	=333	=333	=333	=333
*ped	*	*	*	*
N(>16EE/LL	.	4ryy	.	.
16BB/	.	.	.	.
16C#X/	.	.	.	.
16E/JJ	.	.	.	.
4r	.	16G/LL	.	.
.	.	16B/	.	.
.	.	16c#X/	.	.
.	.	16g/JJN)	.	.
!!LO:LB:g=original
=334	=334	=334	=334	=334
!	!	!LO:TX:b:i:t=m.s.	!	!
4b>^\	.	4ryy	.	.
*Xped	*	*	*	*
4D^\ 4A	.	4d^/ 4f# 4ccn 4dd	.	.
=335	=335	=335	=335	=335
8GG\L	.	(16ggg\LL	.	.
.	.	16ddd\	.	.
8D\	.	16bb\	.	.
.	.	16aa\JJ	.	.
8B\	.	16bb\LL	.	.
.	.	16aa\	.	.
8D\J	.	16gg\	.	.
.	.	16ee\JJ	.	.
=336	=336	=336	=336	=336
8GG\L	.	16gg\LL	.	.
.	.	16dd\	.	.
8D\	.	16b\	.	.
.	.	16a\JJ	.	.
8G\	.	16b/LL	.	.
.	.	16a/	.	.
8D\J	.	16g/	.	.
.	.	16d/JJ)	.	.
=337	=337	=337	=337	=337
8GG\L	.	(16gg\LL	.	.
.	.	16dd\	.	.
8D\	.	16b\	.	.
.	.	16a\JJ	.	.
8B\	.	16b/LL	.	.
.	.	16a/	.	.
8D\J	.	16g/	.	.
.	.	16e/JJ	.	.
!!LO:LB:g=original
=338	=338	=338	=338	=338
8GG/L	.	16g/LL	.	.
.	.	16d/	.	.
8D/	.	16B/	.	.
.	.	16A/JJ	.	.
*	*	*clefF4	*	*
8GG/	.	16B\LL	.	.
.	.	16A\	.	.
[>8GG/J	.	16G\	.	.
.	.	16E\JJ)	.	.
=339	=339	=339	=339	=339
*	*	*^	*	*
4GGG/ 4GG]	.	8G^/L	(16G\LL	.	.
.	.	.	16D\	.	.
.	.	8B^/J	16E\	.	.
.	.	.	16D\JJ)	.	.
(16d\LL	.	4d<^/	4ryy	.	.
16B\	.	.	.	.	.
16G\	.	.	.	.	.
16D\JJ)	.	.	.	.	.
*	*	*clefG2	*	*	*
=340	=340	=340	=340	=340	=340
4ryy	.	8g/L	(16g\LL	.	.
.	.	.	16d\	.	.
.	.	8b/J	16e\	.	.
.	.	.	16d\JJ)	.	.
*clefG2	*	*	*	*	*
(16dd\LL	.	4dd</	4ryy	.	.
16b\	.	.	.	.	.
16g\	.	.	.	.	.
16d\JJ)	.	.	.	.	.
=341	=341	=341	=341	=341	=341
4ryy	.	8gg/L	(16gg\LL	.	.
.	.	.	16dd\	.	.
.	.	8bb/J	16ee\	.	.
.	.	.	16dd\JJ)	.	.
(16ddd\LL	.	4ddd</	4ryy	.	.
16bb\	.	.	.	.	.
16gg\	.	.	.	.	.
16dd\JJ)	.	.	.	.	.
!!LO:LB:g=original
=342	=342	=342	=342	=342	=342
*	*	*	*8va	*	*
4ryy	.	8ggg/L	(16ggg\LL	.	.
.	.	.	16ddd\	.	.
.	.	8bbb/J	16eee\	.	.
.	.	.	16ddd\JJ)	.	.
*8va	*	*	*	*	*
(<16dddd\LL	.	4ryy	4ryy	.	.
16bbb\	.	.	.	.	.
16ggg\	.	.	.	.	.
16ddd\JJ)	.	.	.	.	.
*X8va	*	*	*	*	*
*	*	*v	*v	*	*
=343	=343	=343	=343	=343
2r	.	4gggg\	.	.
*	*	*X8va	*	*
.	.	4r	.	.
=344	=344	=344	=344	=344
2r	.	2r	.	.
*clefF4	*	*	*	*
=345	=345	=345	=345	=345
*	*	*^	*	*
!	!	!LO:TX:a:i:t=m.s.	!	!	!
[2GG:\ [2D: [2B:	.	[2gg/	[2d:\ [2g: [>2b: [>2dd:	.	.
=346	=346	=346	=346	=346	=346
2GG\] 2D] 2B]	.	2gg/]	2d\] 2g] 2b] 2dd]	.	.
*	*	*v	*v	*	*
=347	=347	=347	=347	=347
[2GGG/	.	2r	.	.
=348	=348	=348	=348	=348
2GGG/]	.	2r	.	.
*Xped	*	*	*	*
==	==	==	==	==
*-	*-	*-	*-	*-
!!!system-decoration: {(s1,s2)}
!!!RDF**kern: < = below
!!!RDF**kern: > = above
!!!RDF**dynam: > = "dim."
!!!RDF**kern: N = linked
!!!RDF**kern: NN = linked
!!!RDF**kern: NNN = linked
!!!ENC: Anastazja Marusiak
!!!END: 2023-10-21
!!!EED: Marta Chmielewska
!!!EEV: 2023-11-11
!!!YEM: Copyright © 2023 by [Copyright Holder]
